apps/editor/assets/luts/carbon_bronze.cube
# Carbon & Bronze — generado por scripts/make_lut.py
# fuerza=1.00 contraste=0.28 desaturacion=0.15
TITLE "%s" % args.preset
LUT_3D_SIZE 5
DOMAIN_MIN 0.0 0.0 0.0
DOMAIN_MAX 1.0 1.0 1.0
0.091375 0.092635 0.108528
0.185924 0.093457 0.108630
0.405803 0.094771 0.108972
0.640084 0.096393 0.109564
0.829226 0.097881 0.110209
0.095283 0.204520 0.109448
0.209760 0.211650 0.110057
0.446700 0.221349 0.111104
0.692791 0.231350 0.112484
0.888597 0.239169 0.113821
0.103700 0.470727 0.113473
0.244723 0.481138 0.115011
0.495797 0.495509 0.118576
0.745674 0.509214 0.124323
0.935052 0.519326 0.129825
0.127686 0.751422 0.128470
0.298228 0.759592 0.134557
0.543714 0.770029 0.143475
0.782338 0.780316 0.153580
0.962408 0.788173 0.162224
0.163670 0.954976 0.151963
0.345109 0.960979 0.160499
0.581506 0.968431 0.172516
0.809963 0.975555 0.185648
0.981528 0.980850 0.196584
0.091641 0.092854 0.190023
0.188033 0.093738 0.195366
0.409918 0.095136 0.202858
0.645626 0.096850 0.211035
0.835660 0.098413 0.217845
0.095769 0.206829 0.209639
0.212336 0.214094 0.216364
0.450646 0.223930 0.225541
0.697646 0.233978 0.234982
0.893832 0.241808 0.242412
0.104540 0.474305 0.240605
0.247436 0.484527 0.248060
0.499903 0.499395 0.260964
0.748560 0.512645 0.274534
0.937310 0.522817 0.285297
0.130746 0.754224 0.282785
0.302870 0.762386 0.293710
0.547536 0.772800 0.307924
0.785208 0.783054 0.322203
0.964467 0.790880 0.333288
0.168039 0.957090 0.320060
0.349979 0.963039 0.331189
0.585374 0.970420 0.345493
0.812742 0.977469 0.359718
0.983409 0.982705 0.370683
0.092016 0.093169 0.382541
0.190830 0.094134 0.395666
0.415218 0.095644 0.412416
0.652698 0.097478 0.428887
0.843821 0.099141 0.441399
0.096434 0.209879 0.426193
0.215724 0.217314 0.438763
0.455687 0.227284 0.454503
0.703760 0.237377 0.469550
0.900323 0.245208 0.480574
0.105668 0.478835 0.477962
0.252308 0.489535 0.488969
0.504931 0.504149 0.503044
0.752291 0.517104 0.514882
0.940202 0.527341 0.524161
0.134885 0.757836 0.522042
0.308901 0.765984 0.531381
0.552477 0.776364 0.543389
0.788898 0.786572 0.555315
0.967097 0.794356 0.564485
0.173867 0.959792 0.553587
0.356277 0.965671 0.562817
0.590360 0.972959 0.574574
0.816308 0.979912 0.586152
0.985808 0.985070 0.594998
0.092427 0.093522 0.583430
0.193715 0.094570 0.603264
0.420512 0.096195 0.628057
0.659687 0.098151 0.651838
0.851826 0.099917 0.669469
0.097144 0.213012 0.647992
0.219186 0.220612 0.665788
0.460672 0.230665 0.687472
0.709695 0.240787 0.707430
0.906495 0.248824 0.721432
0.106851 0.483259 0.718146
0.257673 0.494659 0.731326
0.509561 0.508524 0.743930
0.756031 0.521600 0.753932
0.943072 0.531888 0.761617
0.139245 0.761448 0.759915
0.314984 0.769577 0.767577
0.557434 0.779919 0.777282
0.792578 0.790078 0.786771
0.969702 0.797817 0.793970
0.179921 0.962469 0.785472
0.362600 0.968278 0.792746
0.595349 0.975472 0.801889
0.819858 0.982327 0.810759
0.988180 0.987407 0.817444
0.092773 0.093822 0.743494
0.196016 0.094937 0.768302
0.424614 0.096652 0.799016
0.665049 0.098706 0.828117
0.857924 0.100553 0.849416
0.097726 0.215499 0.823437
0.221917 0.223206 0.844991
0.464496 0.233304 0.870854
0.714164 0.243436 0.894098
0.911035 0.252475 0.909795
0.108134 0.486919 0.906222
0.261971 0.498580 0.919742
0.513204 0.511958 0.930076
0.758939 0.525112 0.938540
0.945285 0.535433 0.944923
0.142783 0.764250 0.943561
0.319738 0.772362 0.949862
0.561291 0.782672 0.957718
0.795428 0.792791 0.965263
0.971706 0.800494 0.970895
0.184774 0.964531 0.964304
0.367523 0.970284 0.970022
0.599222 0.977404 0.977093
0.822603 0.984182 0.983822
0.990001 0.989201 0.988801
