apps/editor/assets/luts/carbon_bronze.cube
# Carbon & Bronze — generado por scripts/make_lut.py
# fuerza=1.00 contraste=0.28 desaturacion=0.15
TITLE "%s" % args.preset
LUT_3D_SIZE 9
DOMAIN_MIN 0.0 0.0 0.0
DOMAIN_MAX 1.0 1.0 1.0
0.091375 0.092635 0.108528
0.122837 0.092996 0.108558
0.185924 0.093457 0.108630
0.286869 0.094040 0.108761
0.405803 0.094771 0.108972
0.528094 0.095587 0.109252
0.640084 0.096393 0.109564
0.740739 0.097164 0.109888
0.829226 0.097881 0.110209
0.092938 0.128077 0.108749
0.127610 0.129450 0.108882
0.196456 0.131117 0.109075
0.302338 0.133111 0.109348
0.425029 0.135473 0.109723
0.550710 0.137977 0.110175
0.665398 0.140335 0.110648
0.768150 0.142508 0.111124
0.858225 0.144460 0.111582
0.095283 0.204520 0.109448
0.134016 0.207783 0.109710
0.209760 0.211650 0.110057
0.320261 0.216160 0.110513
0.446700 0.221349 0.111104
0.575642 0.226614 0.111788
0.692791 0.231350 0.112484
0.797318 0.235540 0.113169
0.888597 0.239169 0.113821
0.098729 0.326087 0.110883
0.142466 0.330468 0.111316
0.226116 0.335509 0.111872
0.340312 0.341188 0.112579
0.470080 0.347469 0.113473
0.601648 0.353648 0.114488
0.720449 0.359053 0.115509
0.825989 0.364810 0.116970
0.917111 0.370159 0.118571
0.103700 0.470727 0.113473
0.153372 0.475625 0.114152
0.244723 0.481138 0.115011
0.362255 0.487574 0.116310
0.495797 0.495509 0.118576
0.628778 0.503123 0.121354
0.745674 0.509214 0.124323
0.847640 0.514614 0.127180
0.935052 0.519326 0.129825
0.112228 0.620860 0.118580
0.171135 0.626037 0.120420
0.271280 0.631214 0.122889
0.389851 0.636719 0.126021
0.521102 0.642915 0.129853
0.650719 0.649131 0.134026
0.765096 0.654691 0.138042
0.864663 0.659588 0.141803
0.949851 0.663819 0.145225
0.127686 0.751422 0.128470
0.195440 0.755218 0.131203
0.298228 0.759592 0.134557
0.414910 0.764534 0.138617
0.543714 0.770029 0.143475
0.670602 0.775481 0.148663
0.782338 0.780316 0.153580
0.879443 0.784543 0.158127
0.962408 0.788173 0.162224
0.145385 0.862136 0.140020
0.220826 0.865448 0.143370
0.323097 0.869238 0.147432
0.437677 0.873488 0.152289
0.563939 0.878176 0.158030
0.688109 0.882792 0.164093
0.797284 0.886855 0.169781
0.892038 0.890384 0.175001
0.972902 0.893398 0.179674
0.163670 0.954976 0.151963
0.244533 0.957784 0.155836
0.345109 0.960979 0.160499
0.457653 0.964537 0.166030
0.581506 0.968431 0.172516
0.703145 0.972234 0.179313
0.809963 0.975555 0.185648
0.902570 0.978419 0.191431
0.981528 0.980850 0.196584
0.091495 0.092734 0.134802
0.123253 0.093108 0.135532
0.186896 0.093584 0.136451
0.288374 0.094186 0.137592
0.407712 0.094937 0.138994
0.530372 0.095775 0.140534
0.642660 0.096601 0.142029
0.743552 0.097392 0.143443
0.832222 0.098124 0.144740
0.093103 0.128506 0.137499
0.128104 0.129903 0.138435
0.197532 0.131597 0.139594
0.303867 0.133622 0.141014
0.426917 0.136020 0.142737
0.552918 0.138559 0.144605
0.667855 0.140949 0.146401
0.770796 0.143149 0.148086
0.861007 0.145125 0.149623
0.095505 0.205585 0.141494
0.134602 0.208877 0.142681
0.210949 0.212778 0.144137
0.321796 0.217324 0.145901
0.448534 0.222544 0.148018
0.577727 0.227822 0.150291
0.695055 0.232568 0.152459
0.799700 0.236762 0.154478
0.891046 0.240393 0.156309
0.099024 0.327555 0.147246
0.143155 0.331934 0.148741
0.227385 0.336969 0.150559
0.341816 0.342637 0.152743
0.471795 0.348901 0.155342
0.603509 0.355054 0.158110
0.722438 0.360591 0.160850
0.827977 0.366615 0.164348
0.918903 0.371986 0.167745
0.104086 0.472394 0.155342
0.154171 0.477256 0.157211
0.245983 0.482719 0.159470
0.364137 0.489409 0.162873
0.497714 0.497325 0.167756
0.630326 0.504731 0.173246
0.747012 0.510802 0.178593
0.848830 0.516219 0.183551
0.936101 0.520943 0.188018
0.113219 0.622663 0.167767
0.172833 0.627689 0.171450
0.273288 0.632642 0.176047
0.391742 0.638159 0.181563
0.522828 0.644364 0.188071
0.652254 0.650585 0.194918
0.766441 0.656148 0.201316
0.865829 0.661045 0.207164
0.950854 0.665275 0.212380
0.129089 0.752722 0.185753
0.197522 0.756517 0.190316
0.300377 0.760889 0.195781
0.416890 0.765827 0.202225
0.545486 0.771315 0.209732
0.672148 0.776760 0.217545
0.783670 0.781587 0.224733
0.880577 0.785807 0.231091
0.963365 0.789430 0.236597
0.147113 0.863281 0.204421
0.223205 0.866585 0.209579
0.325315 0.870366 0.215717
0.439700 0.874605 0.222887
0.565728 0.879280 0.230968
0.689652 0.883882 0.239056
0.798596 0.887931 0.246287
0.893139 0.891448 0.252656
0.973816 0.894452 0.258162
0.165680 0.955959 0.222422
0.246969 0.958755 0.227940
0.347367 0.961937 0.234322
0.459697 0.965479 0.241566
0.583301 0.969356 0.249665
0.704678 0.973141 0.257755
0.811253 0.976445 0.264974
0.903640 0.979295 0.271324
0.982402 0.981713 0.276807
0.091641 0.092854 0.190023
0.123745 0.093243 0.192451
0.188033 0.093738 0.195366
0.290118 0.094360 0.198817
0.409918 0.095136 0.202858
0.532999 0.096000 0.207091
0.645626 0.096850 0.211035
0.746784 0.097661 0.214636
0.835660 0.098413 0.217845
0.093300 0.129013 0.198543
0.128685 0.130437 0.201270
0.198789 0.132162 0.204531
0.305637 0.134224 0.208374
0.429096 0.136662 0.212851
0.555459 0.139242 0.217514
0.670677 0.141669 0.221829
0.773829 0.143902 0.225694
0.864193 0.145906 0.229072
0.095769 0.206829 0.209639
0.135289 0.210155 0.212709
0.212336 0.214094 0.216364
0.323571 0.218682 0.220646
0.450646 0.223930 0.225541
0.580121 0.229223 0.230502
0.697646 0.233978 0.234982
0.802418 0.238176 0.238958
0.893832 0.241808 0.242412
0.099372 0.329250 0.223787
0.143963 0.333626 0.227149
0.228854 0.338654 0.231069
0.343550 0.344309 0.235554
0.473762 0.350551 0.240605
0.605630 0.356671 0.245676
0.724783 0.362585 0.250728
0.830209 0.368718 0.256117
0.920865 0.374094 0.260947
0.104540 0.474305 0.240605
0.155103 0.479124 0.244063
0.247436 0.484527 0.248060
0.366353 0.491539 0.253914
0.499903 0.499395 0.260964
0.632045 0.506545 0.268101
0.748560 0.512645 0.274534
0.850204 0.518081 0.280281
0.937310 0.522817 0.285297
0.114409 0.624696 0.260982
0.174829 0.629457 0.265868
0.275627 0.634297 0.271508
0.393939 0.639828 0.278006
0.524830 0.646042 0.285363
0.654030 0.652267 0.292788
0.767995 0.657831 0.299466
0.867174 0.662728 0.305374
0.952009 0.666956 0.310499
0.130746 0.754224 0.282785
0.199963 0.758017 0.287838
0.302870 0.762386 0.293710
0.419184 0.767319 0.300406
0.547536 0.772800 0.307924
0.673935 0.778237 0.315459
0.785208 0.783054 0.322203
0.881885 0.787265 0.328147
0.964467 0.790880 0.333288
0.149145 0.864602 0.302643
0.225964 0.867897 0.307782
0.327884 0.871667 0.313731
0.442040 0.875892 0.320487
0.567797 0.880552 0.328044
0.691434 0.885137 0.335595
0.800110 0.889172 0.342334
0.894409 0.892675 0.348261
0.974868 0.895667 0.353380
0.168039 0.957090 0.320060
0.249790 0.959873 0.325225
0.349979 0.963039 0.331189
0.462061 0.966564 0.337948
0.585374 0.970420 0.345493
0.706448 0.974184 0.353016
0.812742 0.977469 0.359718
0.904873 0.980302 0.365606
0.983409 0.982705 0.370683
0.091813 0.092998 0.278962
0.124316 0.093404 0.283332
0.189342 0.093920 0.288412
0.292103 0.094567 0.294211
0.412421 0.095371 0.300732
0.535971 0.096264 0.307279
0.648974 0.097141 0.313144
0.750428 0.097977 0.318314
0.839531 0.098751 0.322784
0.093532 0.129602 0.293759
0.129358 0.131057 0.298202
0.200233 0.132818 0.303352
0.307650 0.134920 0.309211
0.431564 0.137405 0.315772
0.558328 0.140032 0.322328
0.673856 0.142500 0.328172
0.777238 0.144769 0.333299
0.867767 0.146805 0.337710
0.096077 0.208258 0.311093
0.136083 0.211623 0.315569
0.213925 0.215604 0.320737
0.325584 0.220239 0.326586
0.453032 0.225510 0.333097
0.582814 0.230817 0.339556
0.700553 0.235580 0.345267
0.805456 0.239782 0.350235
0.896934 0.243413 0.354471
0.099777 0.331175 0.330780
0.144893 0.335545 0.335207
0.230524 0.340563 0.340285
0.345509 0.346201 0.345987
0.475973 0.352414 0.352264
0.607998 0.358492 0.358399
0.727415 0.364919 0.364571
0.832647 0.371116 0.370347
0.922922 0.376468 0.375274
0.105066 0.476455 0.352263
0.156172 0.481221 0.356466
0.249621 0.486845 0.361505
0.368899 0.493954 0.368027
0.502333 0.501693 0.375296
0.634004 0.508615 0.382084
0.750320 0.514745 0.388141
0.851761 0.520200 0.393529
0.938678 0.524949 0.398218
0.115816 0.626919 0.375317
0.177140 0.631324 0.379979
0.278303 0.636181 0.385303
0.396446 0.641725 0.391406
0.527108 0.647947 0.398289
0.656048 0.654177 0.405209
0.769758 0.659742 0.411414
0.868697 0.664638 0.416890
0.953315 0.668864 0.421630
0.132672 0.755929 0.395888
0.202778 0.759720 0.400607
0.305710 0.764085 0.406077
0.421794 0.769011 0.412297
0.549866 0.774484 0.419262
0.675963 0.779909 0.426225
0.786951 0.784716 0.432441
0.883365 0.788917 0.437909
0.965711 0.792522 0.442630
0.151498 0.866097 0.414382
0.229104 0.869382 0.419143
0.330807 0.873139 0.424642
0.444701 0.877349 0.430874
0.570146 0.881991 0.437830
0.693455 0.886558 0.444763
0.801825 0.890575 0.450937
0.895844 0.894062 0.456357
0.976055 0.897040 0.461030
0.170762 0.958368 0.430493
0.252999 0.961137 0.435249
0.352949 0.964285 0.440733
0.464747 0.967789 0.446935
0.587727 0.971622 0.453843
0.708455 0.975362 0.460716
0.814427 0.978626 0.466826
0.906266 0.981439 0.472183
0.984545 0.983824 0.476797
0.092016 0.093169 0.382541
0.124972 0.093595 0.388641
0.190830 0.094134 0.395666
0.294332 0.094808 0.403600
0.415218 0.095644 0.412416
0.539283 0.096570 0.421154
0.652698 0.097478 0.428887
0.754473 0.098342 0.435629
0.843821 0.099141 0.441399
0.093802 0.130278 0.402984
0.130128 0.131768 0.409008
0.201871 0.133569 0.415926
0.309905 0.135718 0.423711
0.434318 0.138255 0.432323
0.561521 0.140933 0.440814
0.677383 0.143448 0.448283
0.781011 0.145758 0.454756
0.871712 0.147828 0.460262
0.096434 0.209879 0.426193
0.136988 0.213285 0.432058
0.215724 0.217314 0.438763
0.327834 0.221993 0.446266
0.455687 0.227284 0.454503
0.585799 0.232606 0.462549
0.703760 0.237377 0.469550
0.808792 0.241580 0.475543
0.900323 0.245208 0.480574
0.100244 0.333326 0.451586
0.145949 0.337689 0.457145
0.232394 0.342694 0.463449
0.347691 0.348309 0.470424
0.478417 0.354486 0.477963
0.610715 0.360699 0.485269
0.730297 0.367577 0.492283
0.835234 0.373796 0.498260
0.924903 0.379066 0.503017
0.105668 0.478835 0.477962
0.157382 0.483536 0.482915
0.252308 0.489535 0.488969
0.371766 0.496634 0.495903
0.504931 0.504149 0.503044
0.636207 0.510945 0.509269
0.752291 0.517104 0.514882
0.853501 0.522578 0.519851
0.940202 0.527341 0.524161
0.117465 0.629232 0.503070
0.179790 0.633422 0.507318
0.281324 0.638296 0.512264
0.399268 0.643852 0.517906
0.529666 0.650082 0.524237
0.658308 0.656316 0.530576
0.771729 0.661881 0.536238
0.870397 0.666774 0.541220
0.954769 0.670998 0.545521
0.134885 0.757836 0.522042
0.205985 0.761624 0.526374
0.308901 0.765984 0.531381
0.424723 0.770903 0.537056
0.552477 0.776364 0.543389
0.678233 0.781778 0.549699
0.788898 0.786572 0.555315
0.885016 0.790761 0.560241
0.967097 0.794356 0.564485
0.154188 0.867765 0.538966
0.232629 0.871038 0.543294
0.334086 0.874781 0.548281
0.447682 0.878974 0.553917
0.572776 0.883595 0.560189
0.695715 0.888141 0.566421
0.803740 0.892138 0.571954
0.897445 0.895608 0.576800
0.977377 0.898570 0.580968
0.173867 0.959792 0.553587
0.256597 0.962543 0.557880
0.356277 0.965671 0.562817
0.467755 0.969152 0.568387
0.590360 0.972959 0.574574
0.710697 0.976672 0.580711
0.816308 0.979912 0.586152
0.907820 0.982703 0.590910
0.985808 0.985070 0.594998
0.092228 0.093351 0.487847
0.125645 0.093797 0.495635
0.192342 0.094359 0.504556
0.296569 0.095061 0.514567
0.418015 0.095930 0.525609
0.542584 0.096889 0.536469
0.656399 0.097828 0.546003
0.758485 0.098721 0.554255
0.848068 0.099545 0.561271
0.094084 0.130973 0.513792
0.130917 0.132497 0.521351
0.203532 0.134339 0.529982
0.312164 0.136534 0.539629
0.437065 0.139123 0.550216
0.564693 0.141853 0.560561
0.680877 0.144414 0.569580
0.784739 0.146765 0.577327
0.875599 0.148869 0.583863
0.096803 0.211523 0.542690
0.137912 0.214971 0.549891
0.217543 0.219046 0.558072
0.330083 0.223757 0.567152
0.458327 0.229066 0.577026
0.588751 0.234400 0.586561
0.706917 0.239176 0.594756
0.812060 0.243379 0.601682
0.903623 0.247001 0.607417
0.100724 0.335477 0.573541
0.147024 0.339830 0.580169
0.234267 0.344819 0.587620
0.349861 0.350409 0.595772
0.480829 0.356544 0.604451
0.613608 0.363252 0.612866
0.733094 0.370259 0.620246
0.837635 0.376456 0.626157
0.926482 0.381581 0.630339
0.106286 0.481185 0.604450
0.158871 0.485984 0.610145
0.255108 0.492244 0.616820
0.374633 0.499274 0.623881
0.507366 0.506451 0.630370
0.638421 0.513288 0.636115
0.754264 0.519474 0.641261
0.855239 0.524965 0.645794
0.941720 0.529739 0.649711
0.119191 0.631322 0.630401
0.182508 0.635529 0.634327
0.284370 0.640417 0.638873
0.402106 0.645983 0.644032
0.532233 0.652221 0.649793
0.660572 0.658456 0.655533
0.773698 0.664020 0.660639
0.872092 0.668911 0.665115
0.956216 0.673131 0.668969
0.137160 0.759743 0.647809
0.209252 0.763528 0.651743
0.312106 0.767882 0.656273
0.427662 0.772792 0.661390
0.555092 0.778242 0.667077
0.680503 0.783643 0.672722
0.790842 0.788425 0.677727
0.886661 0.792601 0.682103
0.968475 0.796185 0.685863
0.156940 0.869430 0.663122
0.236168 0.872690 0.667008
0.337374 0.876418 0.671472
0.450670 0.880594 0.676501
0.575408 0.885194 0.682078
0.697973 0.889719 0.687598
0.805651 0.893696 0.692483
0.899040 0.897148 0.696747
0.978691 0.900094 0.700405
0.177035 0.961208 0.676224
0.260206 0.963943 0.680045
0.359612 0.967051 0.684428
0.470766 0.970509 0.689357
0.592994 0.974289 0.694813
0.712937 0.977975 0.700205
0.818184 0.981190 0.704968
0.909367 0.983959 0.709121
0.987064 0.986307 0.712679
0.092427 0.093522 0.583430
0.126263 0.093986 0.592691
0.193715 0.094570 0.603264
0.298576 0.095297 0.615081
0.420512 0.096195 0.628057
0.545523 0.097185 0.640751
0.659687 0.098151 0.651838
0.762042 0.099070 0.661387
0.851826 0.099917 0.669469
0.094345 0.131610 0.614169
0.131638 0.133166 0.623061
0.205037 0.135044 0.633177
0.314187 0.137280 0.644433
0.439515 0.139915 0.656719
0.567512 0.142692 0.668653
0.683972 0.145294 0.678990
0.788031 0.147681 0.687814
0.879023 0.149816 0.695212
0.097144 0.213012 0.647992
0.138754 0.216496 0.656343
0.219186 0.220612 0.665788
0.332092 0.225341 0.676213
0.460672 0.230665 0.687472
0.591362 0.236008 0.698253
0.709695 0.240787 0.707430
0.814919 0.244986 0.715104
0.906495 0.248824 0.721432
0.101165 0.337398 0.683509
0.148000 0.341741 0.691036
0.235943 0.346713 0.699443
0.351790 0.352276 0.708561
0.482955 0.358369 0.718147
0.616194 0.365606 0.727276
0.735505 0.372661 0.734739
0.839547 0.378789 0.740275
0.927889 0.383849 0.743895
0.106851 0.483259 0.718146
0.160597 0.488375 0.724429
0.257673 0.494659 0.731326
0.377179 0.501580 0.738237
0.509561 0.508524 0.743930
0.640408 0.515394 0.749221
0.756031 0.521600 0.753932
0.856791 0.527105 0.758062
0.943072 0.531888 0.761617
0.120789 0.633199 0.743965
0.184994 0.637419 0.747585
0.287115 0.642318 0.751758
0.404656 0.647893 0.756469
0.534535 0.654134 0.761704
0.662598 0.660371 0.766895
0.775459 0.665934 0.771492
0.873604 0.670822 0.775508
0.957505 0.675038 0.778954
0.139245 0.761448 0.759915
0.212223 0.765229 0.763482
0.314984 0.769577 0.767577
0.430296 0.774480 0.772183
0.557434 0.779919 0.777282
0.682532 0.785308 0.782321
0.792578 0.790078 0.786771
0.888128 0.794243 0.790649
0.969702 0.797817 0.793970
0.159454 0.870914 0.773752
0.239343 0.874163 0.777235
0.340322 0.877877 0.781224
0.453345 0.882037 0.785702
0.577763 0.886619 0.790648
0.699992 0.891124 0.795524
0.807357 0.895084 0.799821
0.900461 0.898520 0.803559
0.979859 0.901451 0.806756
0.179921 0.962469 0.785472
0.263440 0.965188 0.788865
0.362600 0.968278 0.792746
0.473462 0.971715 0.797094
0.595349 0.975472 0.801889
0.714938 0.979134 0.806607
0.819858 0.982327 0.810759
0.910745 0.985076 0.814365
0.988180 0.987407 0.817444
0.092610 0.093680 0.668789
0.126820 0.094160 0.679320
0.194942 0.094764 0.691315
0.300349 0.095513 0.704685
0.422712 0.096436 0.719318
0.548104 0.097453 0.733580
0.662568 0.098445 0.745990
0.765154 0.099387 0.756640
0.855108 0.100254 0.765621
0.094583 0.132184 0.703654
0.132286 0.133767 0.713690
0.206379 0.135677 0.725077
0.315972 0.137950 0.737706
0.441668 0.140626 0.751438
0.569981 0.143443 0.764715
0.686677 0.146082 0.776161
0.790901 0.148500 0.785883
0.881999 0.150663 0.793994
0.097453 0.214339 0.741690
0.139508 0.217856 0.751019
0.220648 0.222000 0.761534
0.333859 0.226743 0.773092
0.462727 0.232078 0.785507
0.593640 0.237428 0.797315
0.712106 0.242207 0.807287
0.817388 0.246402 0.815551
0.908960 0.250744 0.822311
0.101563 0.339089 0.781146
0.148871 0.343422 0.789421
0.237421 0.348377 0.798613
0.353479 0.353914 0.808509
0.484870 0.360039 0.818811
0.618452 0.367709 0.828292
0.737543 0.374771 0.835630
0.840943 0.380772 0.840427
0.929126 0.385862 0.843767
0.107417 0.485120 0.818810
0.162228 0.490509 0.825404
0.259967 0.496772 0.832331
0.379388 0.503543 0.838831
0.511509 0.510361 0.843806
0.642165 0.517257 0.848679
0.757589 0.523480 0.852994
0.858156 0.528996 0.856759
0.944260 0.533787 0.859988
0.122240 0.634860 0.843844
0.187228 0.639091 0.847184
0.289549 0.643998 0.851014
0.406914 0.649578 0.855320
0.536570 0.655823 0.860080
0.664386 0.662060 0.864776
0.777009 0.667621 0.868917
0.874935 0.672506 0.872520
0.958636 0.676719 0.875601
0.141125 0.762950 0.858467
0.214882 0.766728 0.861703
0.317529 0.771070 0.865405
0.432624 0.775966 0.869553
0.559500 0.781396 0.874125
0.684322 0.786774 0.878623
0.794107 0.791533 0.882578
0.889417 0.795688 0.886011
0.970778 0.799253 0.888941
0.161711 0.872219 0.870977
0.242150 0.875458 0.874099
0.342926 0.879161 0.877663
0.455707 0.883306 0.881649
0.579840 0.887872 0.886032
0.701770 0.892359 0.890333
0.808858 0.896303 0.894107
0.901709 0.899725 0.897377
0.980884 0.902644 0.900163
0.182505 0.963576 0.881461
0.266297 0.966282 0.884472
0.365237 0.969356 0.887904
0.475840 0.972774 0.891736
0.597425 0.976510 0.895941
0.716700 0.980150 0.900060
0.821331 0.983323 0.903668
0.911955 0.986056 0.906787
0.989158 0.988371 0.909441
0.092773 0.093822 0.743494
0.127311 0.094317 0.755102
0.196016 0.094937 0.768302
0.301887 0.095706 0.782985
0.424614 0.096652 0.799016
0.550330 0.097692 0.814598
0.665049 0.098706 0.828117
0.767828 0.099668 0.839686
0.857924 0.100553 0.849416
0.094794 0.132690 0.781854
0.132856 0.134297 0.792855
0.207552 0.136235 0.805313
0.317518 0.138539 0.819097
0.443526 0.141250 0.834040
0.572107 0.144103 0.848436
0.688999 0.146773 0.860798
0.793358 0.149219 0.871258
0.884542 0.151404 0.879948
0.097726 0.215499 0.823437
0.140170 0.219043 0.833584
0.221917 0.223206 0.844991
0.335387 0.227961 0.857489
0.464496 0.233304 0.870854
0.595592 0.238658 0.883495
0.714164 0.243436 0.894098
0.819483 0.247625 0.902815
0.911035 0.252475 0.909795
0.101914 0.340550 0.866167
0.149634 0.344873 0.875053
0.238700 0.349812 0.884880
0.354933 0.355325 0.895393
0.486751 0.361742 0.906221
0.620381 0.369540 0.915794
0.739223 0.376584 0.922847
0.842140 0.382498 0.926934
0.930195 0.387615 0.930034
0.108134 0.486919 0.906222
0.163702 0.492360 0.912919
0.261971 0.498580 0.919742
0.381232 0.505134 0.925507
0.513204 0.511958 0.930076
0.643689 0.518875 0.934577
0.758939 0.525112 0.938540
0.859337 0.530636 0.941982
0.945285 0.535433 0.944923
0.123526 0.636302 0.930119
0.189195 0.640541 0.933206
0.291666 0.645454 0.936733
0.408876 0.651038 0.940678
0.538334 0.657285 0.945019
0.665935 0.663522 0.949280
0.778351 0.669081 0.953020
0.876084 0.673963 0.956261
0.959612 0.678173 0.959022
0.142783 0.764250 0.943561
0.217214 0.768024 0.946506
0.319738 0.772362 0.949862
0.434643 0.777250 0.953608
0.561291 0.782672 0.957718
0.685870 0.788040 0.961741
0.795428 0.792791 0.965263
0.890531 0.796937 0.968307
0.971706 0.800494 0.970895
0.163696 0.873346 0.954904
0.244585 0.876577 0.957709
0.345184 0.880269 0.960901
0.457754 0.884402 0.964456
0.581638 0.888953 0.968347
0.703308 0.893426 0.972146
0.810155 0.897355 0.975463
0.902787 0.900764 0.978324
0.981767 0.903672 0.980752
0.184774 0.964531 0.964304
0.268774 0.967224 0.966982
0.367523 0.970284 0.970022
0.477900 0.973687 0.973402
0.599222 0.977404 0.977093
0.718224 0.981026 0.980689
0.822603 0.984182 0.983822
0.913000 0.986899 0.986518
0.990001 0.989201 0.988801
