apps/editor/assets/luts/carbon_bronze.cube
# Carbon & Bronze — generado por scripts/make_lut.py
# fuerza=1.00 contraste=0.28 desaturacion=0.15
TITLE "%s" % args.preset
LUT_3D_SIZE 33
DOMAIN_MIN 0.0 0.0 0.0
DOMAIN_MAX 1.0 1.0 1.0
0.091375 0.092635 0.108528
0.096932 0.092717 0.108533
0.103915 0.092804 0.108539
0.112490 0.092897 0.108547
0.122837 0.092996 0.108558
0.135145 0.093101 0.108571
0.149617 0.093212 0.108587
0.166467 0.093331 0.108607
0.185924 0.093457 0.108630
0.208227 0.093590 0.108656
0.233316 0.093732 0.108687
0.259612 0.093881 0.108722
0.286869 0.094040 0.108761
0.315103 0.094208 0.108805
0.344328 0.094385 0.108855
0.374556 0.094573 0.108910
0.405803 0.094771 0.108972
0.437277 0.094974 0.109038
0.468163 0.095179 0.109107
0.498442 0.095383 0.109178
0.528094 0.095587 0.109252
0.557101 0.095790 0.109328
0.585446 0.095993 0.109405
0.613112 0.096194 0.109484
0.640084 0.096393 0.109564
0.666346 0.096590 0.109644
0.691885 0.096784 0.109725
0.716686 0.096976 0.109807
0.740739 0.097164 0.109888
0.764030 0.097350 0.109970
0.786548 0.097531 0.110050
0.808284 0.097708 0.110130
0.829226 0.097881 0.110209
0.091706 0.098718 0.108549
0.097399 0.098841 0.108559
0.104546 0.098973 0.108571
0.113319 0.099112 0.108586
0.123897 0.099260 0.108603
0.136475 0.099416 0.108623
0.151258 0.099581 0.108646
0.168462 0.099755 0.108672
0.188319 0.099940 0.108703
0.211072 0.100134 0.108737
0.236494 0.100339 0.108775
0.263014 0.100555 0.108818
0.290499 0.100782 0.108866
0.318962 0.101022 0.108920
0.348417 0.101274 0.108978
0.378877 0.101539 0.109043
0.410356 0.101818 0.109114
0.442057 0.102104 0.109190
0.473159 0.102389 0.109269
0.503642 0.102673 0.109350
0.533488 0.102955 0.109433
0.562680 0.103235 0.109518
0.591199 0.103513 0.109605
0.619029 0.103788 0.109692
0.646156 0.104060 0.109781
0.672564 0.104328 0.109870
0.698241 0.104592 0.109960
0.723172 0.104851 0.110050
0.747346 0.105106 0.110139
0.770750 0.105355 0.110228
0.793375 0.105598 0.110317
0.815210 0.105835 0.110404
0.836245 0.106066 0.110490
0.092075 0.106475 0.108591
0.097913 0.106652 0.108607
0.105236 0.106839 0.108625
0.114218 0.107036 0.108646
0.125043 0.107244 0.108670
0.137906 0.107464 0.108697
0.153015 0.107695 0.108727
0.170592 0.107939 0.108761
0.190868 0.108195 0.108799
0.214092 0.108465 0.108842
0.239823 0.108748 0.108889
0.266572 0.109045 0.108940
0.294287 0.109357 0.108997
0.322983 0.109684 0.109060
0.352672 0.110028 0.109128
0.383367 0.110387 0.109203
0.415082 0.110764 0.109285
0.447011 0.111148 0.109371
0.478331 0.111531 0.109460
0.509021 0.111910 0.109552
0.539062 0.112286 0.109645
0.568438 0.112659 0.109740
0.597131 0.113027 0.109836
0.625126 0.113390 0.109934
0.652408 0.113748 0.110032
0.678962 0.114100 0.110130
0.704775 0.114446 0.110229
0.729835 0.114785 0.110328
0.754129 0.115117 0.110426
0.777646 0.115442 0.110524
0.800375 0.115758 0.110620
0.822308 0.116066 0.110716
0.843433 0.116364 0.110810
0.092484 0.116167 0.108657
0.098478 0.116408 0.108679
0.105990 0.116662 0.108703
0.115194 0.116930 0.108731
0.126278 0.117212 0.108762
0.139442 0.117509 0.108796
0.154895 0.117820 0.108834
0.172862 0.118147 0.108876
0.193579 0.118491 0.108923
0.217294 0.118850 0.108973
0.243305 0.119227 0.109029
0.270285 0.119622 0.109090
0.298234 0.120035 0.109157
0.327165 0.120467 0.109229
0.357091 0.120918 0.109308
0.388023 0.121390 0.109394
0.419974 0.121883 0.109486
0.452135 0.122384 0.109584
0.483673 0.122881 0.109684
0.514569 0.123373 0.109787
0.544806 0.123860 0.109891
0.574366 0.124340 0.109996
0.603234 0.124814 0.110103
0.631392 0.125280 0.110211
0.658827 0.125739 0.110319
0.685525 0.126189 0.110428
0.711473 0.126630 0.110537
0.736659 0.127061 0.110645
0.761070 0.127483 0.110753
0.784697 0.127894 0.110860
0.807528 0.128295 0.110965
0.829555 0.128683 0.111069
0.850768 0.129060 0.111172
0.092938 0.128077 0.108749
0.099099 0.128395 0.108777
0.106810 0.128729 0.108809
0.116251 0.129081 0.108844
0.127610 0.129450 0.108882
0.141090 0.129838 0.108924
0.156904 0.130245 0.108970
0.175280 0.130671 0.109021
0.196456 0.131117 0.109075
0.220684 0.131583 0.109135
0.246939 0.132070 0.109201
0.274153 0.132579 0.109271
0.302338 0.133111 0.109348
0.331506 0.133665 0.109431
0.361669 0.134243 0.109521
0.392839 0.134846 0.109618
0.425029 0.135473 0.109723
0.457420 0.136110 0.109832
0.489176 0.136740 0.109945
0.520279 0.137363 0.110059
0.550710 0.137977 0.110175
0.580453 0.138581 0.110292
0.609492 0.139177 0.110410
0.637812 0.139761 0.110529
0.665398 0.140335 0.110648
0.692237 0.140897 0.110768
0.718317 0.141447 0.110887
0.743625 0.141984 0.111006
0.768150 0.142508 0.111124
0.791882 0.143018 0.111241
0.814812 0.143513 0.111356
0.836928 0.143994 0.111470
0.858225 0.144460 0.111582
0.093440 0.142516 0.108871
0.099780 0.142923 0.108906
0.107704 0.143352 0.108945
0.117394 0.143801 0.108987
0.129043 0.144273 0.109033
0.142856 0.144767 0.109083
0.159049 0.145284 0.109138
0.177852 0.145825 0.109197
0.199507 0.146390 0.109261
0.224237 0.146980 0.109331
0.250726 0.147595 0.109406
0.278175 0.148236 0.109487
0.306596 0.148904 0.109575
0.336002 0.149600 0.109669
0.366403 0.150323 0.109771
0.397811 0.151076 0.109880
0.430237 0.151858 0.109998
0.462858 0.152650 0.110121
0.494831 0.153432 0.110246
0.526138 0.154203 0.110373
0.556761 0.154962 0.110501
0.586684 0.155708 0.110631
0.615891 0.156440 0.110761
0.644369 0.157158 0.110892
0.672102 0.157862 0.111024
0.699078 0.158550 0.111155
0.725285 0.159223 0.111286
0.750710 0.159878 0.111416
0.775345 0.160516 0.111545
0.799177 0.161137 0.111673
0.822198 0.161739 0.111799
0.844400 0.162322 0.111923
0.865773 0.162886 0.112045
0.093995 0.159821 0.109025
0.100526 0.160332 0.109068
0.108676 0.160869 0.109114
0.118630 0.161431 0.109164
0.130584 0.162020 0.109219
0.144746 0.162637 0.109278
0.161335 0.163281 0.109341
0.180584 0.163953 0.109410
0.202737 0.164654 0.109484
0.227941 0.165384 0.109564
0.254663 0.166145 0.109650
0.282348 0.166937 0.109742
0.311006 0.167760 0.109842
0.340648 0.168616 0.109948
0.371287 0.169504 0.110063
0.402931 0.170427 0.110185
0.435593 0.171383 0.110316
0.468441 0.172351 0.110453
0.500627 0.173303 0.110592
0.532134 0.174240 0.110733
0.562945 0.175161 0.110875
0.593043 0.176065 0.111018
0.622415 0.176951 0.111162
0.651044 0.177818 0.111306
0.678919 0.178666 0.111450
0.706026 0.179495 0.111594
0.732353 0.180302 0.111738
0.757890 0.181089 0.111880
0.782626 0.181854 0.112021
0.806552 0.182596 0.112161
0.829658 0.183315 0.112299
0.851937 0.184011 0.112434
0.873379 0.184683 0.112567
0.094607 0.180358 0.109216
0.101342 0.180987 0.109266
0.109732 0.181647 0.109321
0.119965 0.182337 0.109380
0.132240 0.183059 0.109443
0.146767 0.183814 0.109511
0.163770 0.184601 0.109584
0.183482 0.185421 0.109663
0.206153 0.186276 0.109748
0.231795 0.187165 0.109839
0.258750 0.188090 0.109936
0.286669 0.189051 0.110041
0.315562 0.190048 0.110153
0.345440 0.191083 0.110272
0.376314 0.192155 0.110400
0.408192 0.193267 0.110537
0.441084 0.194418 0.110683
0.474155 0.195579 0.110835
0.506550 0.196721 0.110989
0.538252 0.197843 0.111145
0.569245 0.198942 0.111302
0.599513 0.200020 0.111459
0.629041 0.201075 0.111618
0.657816 0.202106 0.111776
0.685825 0.203112 0.111935
0.713055 0.204093 0.112093
0.739495 0.205049 0.112250
0.765134 0.205978 0.112406
0.789964 0.206880 0.112560
0.813973 0.207754 0.112713
0.837155 0.208601 0.112863
0.859501 0.209418 0.113011
0.881004 0.210207 0.113156
0.095283 0.204520 0.109448
0.102235 0.205281 0.109506
0.110879 0.206078 0.109569
0.121405 0.206912 0.109637
0.134016 0.207783 0.109710
0.148926 0.208692 0.109788
0.166359 0.209639 0.109872
0.186553 0.210625 0.109961
0.209760 0.211650 0.110057
0.235798 0.212716 0.110160
0.262984 0.213822 0.110270
0.291135 0.214970 0.110387
0.320261 0.216160 0.110513
0.350371 0.217392 0.110647
0.381475 0.218668 0.110790
0.413582 0.219988 0.110942
0.446700 0.221349 0.111104
0.479988 0.222713 0.111273
0.512585 0.224046 0.111443
0.544475 0.225346 0.111615
0.575642 0.226614 0.111788
0.606071 0.227848 0.111962
0.635748 0.229049 0.112136
0.664658 0.230217 0.112310
0.692791 0.231350 0.112484
0.720134 0.232450 0.112657
0.746676 0.233515 0.112829
0.772407 0.234545 0.113000
0.797318 0.235540 0.113169
0.821400 0.236500 0.113336
0.844645 0.237425 0.113501
0.867047 0.238315 0.113662
0.888597 0.239169 0.113821
0.096026 0.232449 0.109725
0.103209 0.233317 0.109792
0.112121 0.234222 0.109864
0.122957 0.235165 0.109942
0.135920 0.236145 0.110025
0.151228 0.237164 0.110114
0.169109 0.238220 0.110208
0.189803 0.239315 0.110310
0.213563 0.240448 0.110418
0.239946 0.241619 0.110534
0.267361 0.242829 0.110657
0.295741 0.244077 0.110788
0.325095 0.245363 0.110929
0.355432 0.246688 0.111078
0.386761 0.248052 0.111237
0.419090 0.249453 0.111406
0.452427 0.250893 0.111586
0.485923 0.252335 0.111772
0.518714 0.253740 0.111960
0.550782 0.255110 0.112150
0.582113 0.256443 0.112341
0.612692 0.257739 0.112532
0.642505 0.258999 0.112724
0.671540 0.260221 0.112915
0.699784 0.261406 0.113106
0.727226 0.262554 0.113296
0.753857 0.263664 0.113485
0.779665 0.264737 0.113672
0.804644 0.265771 0.113857
0.828783 0.266768 0.114040
0.852077 0.267727 0.114220
0.874517 0.268649 0.114396
0.896099 0.269532 0.114570
0.096844 0.262238 0.110052
0.104272 0.263165 0.110129
0.113467 0.264131 0.110211
0.124627 0.265136 0.110299
0.137959 0.266180 0.110393
0.153681 0.267264 0.110493
0.172026 0.268387 0.110600
0.193236 0.269549 0.110714
0.217566 0.270751 0.110836
0.244238 0.271992 0.110966
0.271876 0.273272 0.111103
0.300479 0.274592 0.111250
0.330055 0.275950 0.111406
0.360613 0.277347 0.111572
0.392160 0.278782 0.111748
0.424702 0.280256 0.111936
0.458247 0.281767 0.112135
0.491941 0.283278 0.112341
0.524913 0.284748 0.112549
0.557147 0.286179 0.112758
0.588629 0.287570 0.112968
0.619344 0.288920 0.113179
0.649279 0.290230 0.113390
0.678422 0.291499 0.113600
0.706762 0.292727 0.113810
0.734287 0.293915 0.114018
0.760988 0.295062 0.114226
0.786856 0.296169 0.114431
0.811883 0.297234 0.114634
0.836061 0.298260 0.114834
0.859382 0.299244 0.115031
0.881841 0.300189 0.115225
0.903433 0.301093 0.115415
0.097743 0.293448 0.110436
0.105430 0.294430 0.110523
0.114923 0.295453 0.110616
0.126423 0.296516 0.110715
0.140138 0.297620 0.110821
0.156292 0.298764 0.110934
0.175116 0.299949 0.111054
0.196857 0.301174 0.111182
0.221767 0.302439 0.111318
0.248667 0.303744 0.111463
0.276522 0.305088 0.111616
0.305342 0.306472 0.111780
0.335132 0.307894 0.111953
0.365901 0.309355 0.112138
0.397655 0.310854 0.112333
0.430399 0.312391 0.112541
0.464140 0.313965 0.112761
0.498017 0.315535 0.112989
0.531155 0.317061 0.113218
0.563539 0.318543 0.113449
0.595155 0.319981 0.113680
0.625988 0.321374 0.113912
0.656027 0.322724 0.114144
0.685259 0.324029 0.114376
0.713673 0.325290 0.114606
0.741259 0.326507 0.114836
0.768008 0.327680 0.115064
0.793912 0.328809 0.115289
0.818962 0.329895 0.115513
0.843166 0.331043 0.115773
0.866508 0.332300 0.116089
0.888956 0.333548 0.116417
0.910501 0.334769 0.116749
0.098729 0.326087 0.110883
0.106690 0.327120 0.110981
0.116497 0.328194 0.111086
0.128351 0.329311 0.111197
0.142466 0.330468 0.111316
0.159065 0.331667 0.111443
0.178383 0.332907 0.111577
0.200670 0.334188 0.111720
0.226116 0.335509 0.111872
0.253226 0.336870 0.112033
0.281291 0.338270 0.112204
0.310317 0.339710 0.112386
0.340312 0.341188 0.112579
0.371280 0.342703 0.112783
0.403228 0.344256 0.113000
0.436160 0.345845 0.113229
0.470080 0.347469 0.113473
0.504122 0.349086 0.113725
0.537407 0.350655 0.113978
0.569920 0.352176 0.114233
0.601648 0.353648 0.114488
0.632577 0.355071 0.114744
0.662694 0.356447 0.115000
0.691988 0.357774 0.115255
0.720449 0.359053 0.115509
0.748114 0.360415 0.115814
0.774960 0.361895 0.116186
0.800924 0.363367 0.116574
0.825989 0.364810 0.116970
0.850146 0.366215 0.117371
0.873387 0.367578 0.117773
0.895710 0.368893 0.118173
0.917111 0.370159 0.118571
0.099810 0.360154 0.111401
0.108060 0.361231 0.111511
0.118195 0.362351 0.111628
0.130419 0.363514 0.111753
0.144947 0.364719 0.111886
0.162006 0.365965 0.112028
0.181833 0.367252 0.112178
0.204676 0.368581 0.112337
0.230598 0.369949 0.112506
0.257908 0.371357 0.112686
0.286171 0.372803 0.112876
0.315392 0.374288 0.113078
0.345577 0.375810 0.113292
0.376730 0.377368 0.113519
0.408855 0.378961 0.113759
0.441955 0.380588 0.114013
0.476033 0.382248 0.114283
0.510217 0.383896 0.114561
0.543624 0.385492 0.114842
0.576240 0.387034 0.115123
0.608051 0.388523 0.115406
0.639078 0.390014 0.115712
0.669402 0.391694 0.116122
0.698875 0.393380 0.116560
0.727462 0.395040 0.117013
0.755148 0.396662 0.117476
0.781918 0.398239 0.117946
0.807766 0.399766 0.118418
0.832683 0.401240 0.118892
0.856664 0.402657 0.119366
0.879704 0.404017 0.119837
0.901800 0.405316 0.120306
0.922945 0.406554 0.120770
0.100993 0.395635 0.111998
0.109547 0.396751 0.112121
0.120025 0.397909 0.112253
0.132633 0.399110 0.112393
0.147589 0.400353 0.112541
0.165120 0.401638 0.112699
0.185466 0.402963 0.112867
0.208876 0.404329 0.113044
0.235202 0.405733 0.113233
0.262701 0.407176 0.113432
0.291148 0.408657 0.113644
0.320548 0.410173 0.113868
0.350906 0.411724 0.114105
0.382224 0.413309 0.114357
0.414504 0.414926 0.114623
0.447749 0.416573 0.114906
0.481957 0.418248 0.115205
0.516252 0.419907 0.115513
0.549902 0.421683 0.115903
0.582849 0.423571 0.116376
0.614949 0.425444 0.116875
0.646166 0.427281 0.117391
0.676481 0.429072 0.117920
0.705875 0.430810 0.118457
0.734336 0.432490 0.119002
0.761854 0.434108 0.119551
0.788418 0.435662 0.120103
0.814016 0.437147 0.120657
0.838634 0.438557 0.121214
0.862233 0.439881 0.121773
0.884784 0.441107 0.122338
0.906430 0.442291 0.122892
0.927178 0.443432 0.123432
0.102287 0.432507 0.112685
0.111160 0.433652 0.112823
0.121995 0.434839 0.112970
0.135001 0.436069 0.113126
0.150396 0.437340 0.113292
0.168410 0.438651 0.113468
0.189283 0.440002 0.113655
0.213267 0.441392 0.113853
0.239916 0.442819 0.114062
0.267587 0.444282 0.114285
0.296201 0.445780 0.114520
0.325761 0.447310 0.114769
0.356269 0.448872 0.115033
0.387727 0.450463 0.115313
0.420135 0.452082 0.115609
0.453800 0.453985 0.116049
0.488480 0.456013 0.116564
0.523211 0.458065 0.117120
0.557068 0.460072 0.117696
0.590023 0.462023 0.118289
0.622056 0.463913 0.118895
0.653148 0.465734 0.119511
0.683281 0.467483 0.120136
0.712439 0.469153 0.120770
0.740592 0.470734 0.121412
0.767664 0.472191 0.122069
0.793746 0.473576 0.122728
0.818909 0.474920 0.123378
0.843157 0.476222 0.124019
0.866494 0.477483 0.124648
0.888925 0.478701 0.125266
0.910454 0.479875 0.125869
0.931086 0.481006 0.126458
0.103700 0.470727 0.113473
0.112906 0.471890 0.113628
0.124112 0.473095 0.113792
0.137527 0.474340 0.113966
0.153372 0.475625 0.114152
0.171877 0.476949 0.114348
0.193283 0.478310 0.114556
0.217841 0.479707 0.114777
0.244723 0.481138 0.115011
0.272545 0.482601 0.115259
0.301303 0.484095 0.115521
0.331208 0.485748 0.115867
0.362255 0.487574 0.116310
0.394272 0.489478 0.116805
0.427219 0.491442 0.117347
0.461070 0.493455 0.117937
0.495797 0.495509 0.118576
0.530488 0.497543 0.119248
0.564233 0.499496 0.119935
0.597008 0.501361 0.120637
0.628778 0.503123 0.121354
0.659461 0.504738 0.122095
0.689135 0.506269 0.122843
0.717871 0.507761 0.123586
0.745674 0.509214 0.124323
0.772548 0.510627 0.125053
0.798497 0.511998 0.125773
0.823526 0.513327 0.126482
0.847640 0.514614 0.127180
0.870844 0.515857 0.127864
0.893145 0.517057 0.128534
0.914545 0.518214 0.129188
0.935052 0.519326 0.129825
0.105203 0.509246 0.114354
0.114747 0.510413 0.114526
0.126325 0.511620 0.114709
0.140150 0.512865 0.114904
0.156441 0.514146 0.115110
0.175429 0.515464 0.115329
0.197354 0.516814 0.115561
0.222721 0.518324 0.115880
0.250186 0.519963 0.116271
0.278623 0.521671 0.116707
0.308002 0.523435 0.117185
0.338301 0.525248 0.117703
0.369503 0.527102 0.118264
0.401588 0.528991 0.118869
0.434534 0.530904 0.119520
0.468312 0.532831 0.120221
0.502886 0.534754 0.120977
0.537309 0.536586 0.121777
0.570646 0.538252 0.122605
0.603026 0.539882 0.123433
0.634453 0.541473 0.124259
0.664931 0.543026 0.125082
0.694464 0.544539 0.125899
0.723057 0.546012 0.126710
0.750715 0.547444 0.127512
0.777443 0.548834 0.128305
0.803247 0.550181 0.129085
0.828132 0.551487 0.129853
0.852104 0.552749 0.130607
0.875168 0.553968 0.131346
0.897330 0.555143 0.132067
0.918596 0.556275 0.132771
0.938971 0.557363 0.133456
0.106756 0.546968 0.115309
0.116632 0.548122 0.115501
0.128649 0.549361 0.115734
0.143146 0.550742 0.116047
0.160265 0.552194 0.116399
0.180232 0.553704 0.116787
0.203284 0.555266 0.117210
0.229508 0.556874 0.117668
0.257173 0.558524 0.118162
0.285738 0.560208 0.118695
0.315188 0.561921 0.119268
0.345506 0.563654 0.119883
0.376671 0.565395 0.120545
0.408652 0.567124 0.121258
0.441377 0.568779 0.122035
0.474848 0.570407 0.122871
0.509106 0.572084 0.123752
0.543269 0.573767 0.124656
0.576467 0.575412 0.125560
0.608703 0.577018 0.126462
0.639983 0.578584 0.127360
0.670310 0.580110 0.128252
0.699692 0.581595 0.129136
0.728133 0.583039 0.130011
0.755638 0.584441 0.130876
0.782215 0.585801 0.131729
0.807869 0.587119 0.132568
0.832605 0.588394 0.133393
0.856431 0.589627 0.134201
0.879351 0.590816 0.134992
0.901373 0.591962 0.135764
0.922501 0.593065 0.136516
0.942742 0.594124 0.137247
0.109080 0.584287 0.116704
0.119675 0.585592 0.117050
0.132463 0.586944 0.117425
0.147663 0.588341 0.117830
0.165496 0.589778 0.118266
0.186192 0.591250 0.118735
0.209985 0.592754 0.119240
0.236621 0.594281 0.119781
0.264314 0.595823 0.120362
0.292863 0.597366 0.120987
0.322239 0.598881 0.121661
0.352392 0.600312 0.122397
0.383355 0.601778 0.123176
0.415122 0.603290 0.123996
0.447683 0.604849 0.124861
0.481028 0.606453 0.125770
0.515146 0.608102 0.126727
0.549161 0.609755 0.127706
0.582206 0.611368 0.128684
0.614287 0.612941 0.129656
0.645410 0.614474 0.130622
0.675580 0.615965 0.131581
0.704803 0.617416 0.132530
0.733085 0.618825 0.133468
0.760434 0.620192 0.134393
0.786855 0.621517 0.135304
0.812355 0.622800 0.136200
0.836940 0.624041 0.137079
0.860617 0.625239 0.137940
0.883392 0.626395 0.138781
0.905272 0.627509 0.139602
0.926262 0.628580 0.140400
0.946368 0.629608 0.141176
0.112228 0.620860 0.118580
0.123409 0.622113 0.118992
0.136812 0.623397 0.119435
0.152648 0.624708 0.119910
0.171135 0.626037 0.120420
0.192493 0.627374 0.120968
0.216940 0.628697 0.121559
0.243686 0.629947 0.122203
0.271280 0.631214 0.122889
0.299701 0.632525 0.123611
0.328943 0.633879 0.124374
0.358996 0.635277 0.125176
0.389851 0.636719 0.126021
0.421500 0.638203 0.126910
0.453931 0.639731 0.127844
0.487136 0.641302 0.128824
0.521102 0.642915 0.129853
0.554958 0.644529 0.130905
0.587842 0.646104 0.131953
0.619760 0.647638 0.132993
0.650719 0.649131 0.134026
0.680726 0.650583 0.135049
0.709786 0.651994 0.136060
0.737907 0.653363 0.137058
0.765096 0.654691 0.138042
0.791359 0.655978 0.139010
0.816704 0.657223 0.139960
0.841136 0.658427 0.140892
0.864663 0.659588 0.141803
0.887292 0.660709 0.142693
0.909029 0.661787 0.143561
0.929880 0.662824 0.144405
0.949851 0.663819 0.145225
0.115730 0.656015 0.120722
0.127484 0.657128 0.121202
0.141479 0.658228 0.121720
0.157914 0.659271 0.122284
0.176995 0.660349 0.122882
0.198938 0.661470 0.123515
0.223935 0.662631 0.124183
0.250621 0.663834 0.124887
0.278133 0.665079 0.125630
0.306463 0.666365 0.126412
0.335604 0.667692 0.127235
0.365546 0.669060 0.128099
0.396281 0.670469 0.129008
0.427800 0.671919 0.129962
0.460091 0.673410 0.130962
0.493145 0.674941 0.132011
0.526951 0.676512 0.133110
0.560640 0.678083 0.134232
0.593357 0.679613 0.135347
0.625108 0.681103 0.136454
0.655900 0.682553 0.137551
0.685740 0.683962 0.138636
0.714635 0.685330 0.139707
0.742592 0.686657 0.140764
0.769620 0.687943 0.141804
0.795724 0.689189 0.142826
0.820912 0.690394 0.143829
0.845191 0.691558 0.144812
0.868568 0.692681 0.145772
0.891050 0.693763 0.146710
0.912644 0.694805 0.147623
0.933357 0.695806 0.148511
0.953194 0.696767 0.149372
0.119524 0.689147 0.123158
0.131829 0.690086 0.123705
0.146378 0.691064 0.124284
0.163374 0.692083 0.124897
0.183021 0.693140 0.125544
0.205533 0.694238 0.126226
0.230914 0.695375 0.126946
0.257513 0.696551 0.127704
0.284931 0.697767 0.128502
0.313158 0.699022 0.129340
0.342187 0.700316 0.130221
0.372009 0.701649 0.131145
0.402615 0.703021 0.132115
0.433995 0.704431 0.133132
0.466139 0.705880 0.134197
0.499036 0.707367 0.135312
0.532677 0.708892 0.136478
0.566196 0.710415 0.137668
0.598742 0.711899 0.138848
0.630322 0.713342 0.140019
0.660944 0.714745 0.141177
0.690616 0.716108 0.142322
0.719344 0.717431 0.143452
0.747137 0.718714 0.144565
0.774002 0.719956 0.145659
0.799947 0.721159 0.146735
0.824979 0.722321 0.147789
0.849105 0.723444 0.148820
0.872332 0.724527 0.149828
0.894669 0.725571 0.150811
0.916121 0.726575 0.151769
0.936696 0.727539 0.152698
0.956399 0.728464 0.153600
0.123525 0.720864 0.125761
0.136359 0.721782 0.126350
0.151446 0.722738 0.126972
0.168986 0.723732 0.127630
0.189182 0.724764 0.128324
0.212244 0.725835 0.129055
0.237820 0.726942 0.129824
0.264324 0.728088 0.130633
0.291638 0.729271 0.131484
0.319754 0.730491 0.132377
0.348664 0.731748 0.133313
0.378359 0.733043 0.134295
0.408830 0.734374 0.135324
0.440066 0.735741 0.136402
0.472059 0.737145 0.137529
0.504796 0.738585 0.138707
0.538267 0.740061 0.139939
0.571613 0.741534 0.141193
0.603986 0.742968 0.142437
0.635394 0.744363 0.143669
0.665846 0.745717 0.144887
0.695349 0.747032 0.146090
0.723910 0.748308 0.147276
0.751539 0.749545 0.148443
0.778242 0.750742 0.149591
0.804028 0.751900 0.150716
0.828904 0.753020 0.151820
0.852878 0.754100 0.152899
0.875957 0.755142 0.153953
0.898149 0.756146 0.154980
0.919460 0.757111 0.155979
0.939898 0.758038 0.156949
0.959470 0.758927 0.157890
0.127686 0.751422 0.128470
0.141035 0.752316 0.129099
0.156645 0.753247 0.129764
0.174713 0.754214 0.130465
0.195440 0.755218 0.131203
0.219033 0.756257 0.131980
0.244622 0.757333 0.132798
0.271023 0.758445 0.133656
0.298228 0.759592 0.134557
0.326228 0.760775 0.135503
0.355014 0.761993 0.136494
0.384578 0.763246 0.137531
0.414910 0.764534 0.138617
0.446000 0.765856 0.139753
0.477838 0.767213 0.140940
0.510413 0.768604 0.142180
0.543714 0.770029 0.143475
0.576885 0.771450 0.144792
0.609084 0.772833 0.146097
0.640321 0.774177 0.147388
0.670602 0.775481 0.148663
0.699936 0.776748 0.149922
0.728331 0.777975 0.151162
0.755796 0.779165 0.152381
0.782338 0.780316 0.153580
0.807967 0.781429 0.154754
0.832688 0.782505 0.155905
0.856511 0.783543 0.157030
0.879443 0.784543 0.158127
0.901492 0.785506 0.159197
0.922664 0.786432 0.160237
0.942967 0.787321 0.161246
0.962408 0.788173 0.162224
0.131977 0.780822 0.131268
0.145827 0.781690 0.131935
0.161944 0.782593 0.132640
0.180522 0.783531 0.133382
0.201762 0.784503 0.134164
0.225805 0.785510 0.134986
0.251296 0.786552 0.135849
0.277591 0.787628 0.136755
0.304683 0.788738 0.137706
0.332563 0.789881 0.138702
0.361223 0.791058 0.139744
0.390653 0.792268 0.140835
0.420844 0.793511 0.141976
0.451786 0.794787 0.143168
0.483468 0.796096 0.144413
0.515880 0.797436 0.145713
0.549009 0.798808 0.147068
0.582006 0.800177 0.148445
0.614032 0.801507 0.149809
0.645096 0.802799 0.151157
0.675207 0.804053 0.152488
0.704374 0.805270 0.153800
0.732604 0.806449 0.155092
0.759907 0.807591 0.156362
0.786290 0.808695 0.157609
0.811763 0.809763 0.158831
0.836332 0.810794 0.160027
0.860006 0.811789 0.161196
0.882793 0.812747 0.162336
0.904700 0.813670 0.163446
0.925735 0.814556 0.164525
0.945905 0.815407 0.165572
0.965217 0.816223 0.166586
0.136373 0.809067 0.134136
0.150707 0.809908 0.134841
0.167314 0.810781 0.135584
0.186385 0.811689 0.136366
0.208117 0.812629 0.137189
0.232436 0.813602 0.138054
0.257824 0.814608 0.138962
0.284010 0.815647 0.139914
0.310987 0.816718 0.140912
0.338745 0.817821 0.141956
0.367277 0.818956 0.143049
0.396572 0.820122 0.144191
0.426621 0.821319 0.145385
0.457415 0.822547 0.146632
0.488941 0.823806 0.147932
0.521189 0.825095 0.149288
0.554148 0.826414 0.150702
0.586970 0.827729 0.152138
0.618824 0.829006 0.153558
0.649718 0.830247 0.154961
0.679662 0.831450 0.156345
0.708662 0.832616 0.157709
0.736730 0.833746 0.159051
0.763872 0.834840 0.160369
