apps/editor/assets/luts/paper_ink.cube
# Carbon & Bronze — generado por scripts/make_lut.py
# fuerza=0.45 contraste=0.16 desaturacion=0.06
TITLE "%s" % args.preset
LUT_3D_SIZE 9
DOMAIN_MIN 0.0 0.0 0.0
DOMAIN_MAX 1.0 1.0 1.0
0.071367 0.070726 0.084886
0.159009 0.068912 0.081460
0.262542 0.067146 0.078163
0.375264 0.065457 0.075056
0.497419 0.063871 0.072194
0.621153 0.062494 0.069766
0.738200 0.061380 0.067849
0.848224 0.060479 0.066344
0.950933 0.059752 0.065165
0.065694 0.152332 0.074755
0.150867 0.150117 0.072452
0.256594 0.147857 0.070281
0.371558 0.145584 0.068285
0.495975 0.143340 0.066499
0.621820 0.141294 0.065035
0.740697 0.139567 0.063922
0.852290 0.138129 0.063082
0.956329 0.136949 0.062452
0.061507 0.253668 0.067682
0.143599 0.252361 0.066304
0.251531 0.251074 0.065045
0.368730 0.249842 0.063931
0.495373 0.248703 0.062978
0.623261 0.247759 0.062239
0.743871 0.247062 0.061712
0.856909 0.246585 0.061340
0.962125 0.246302 0.061083
0.058715 0.367997 0.063392
0.137738 0.367570 0.062705
0.247839 0.367228 0.062108
0.367206 0.367005 0.061612
0.495966 0.366944 0.061222
0.625743 0.367082 0.060951
0.747885 0.367407 0.060787
0.861942 0.367787 0.060702
0.967494 0.368308 0.060681
0.057142 0.495707 0.061306
0.134075 0.496101 0.061058
0.246267 0.496645 0.060866
0.367915 0.497253 0.060737
0.498986 0.497859 0.060681
0.630331 0.498670 0.060724
0.753061 0.499792 0.060926
0.866754 0.500837 0.061160
0.971456 0.501775 0.061402
0.056998 0.627427 0.060688
0.136308 0.627980 0.060690
0.251277 0.628716 0.060805
0.374826 0.629593 0.061039
0.506343 0.630469 0.061327
0.637152 0.631289 0.061655
0.758769 0.632009 0.061996
0.871298 0.632642 0.062343
0.974853 0.633197 0.062689
0.059686 0.750801 0.061189
0.146332 0.751251 0.061436
0.261005 0.751688 0.061731
0.383630 0.752105 0.062080
0.514027 0.752495 0.062491
0.643605 0.752830 0.062938
0.763987 0.753098 0.063389
0.875304 0.753308 0.063836
0.977687 0.753472 0.064273
0.064158 0.863744 0.062209
0.156755 0.863803 0.062547
0.270529 0.863820 0.062939
0.392106 0.863788 0.063390
0.521301 0.863699 0.063908
0.649603 0.863556 0.064460
0.768733 0.863375 0.065006
0.878838 0.863168 0.065541
0.980063 0.862943 0.066057
0.069814 0.966177 0.063445
0.166783 0.965861 0.063862
0.279607 0.965474 0.064339
0.400106 0.965009 0.064880
0.528089 0.964456 0.065490
0.655125 0.963849 0.066133
0.773025 0.963233 0.066762
0.881949 0.962620 0.067371
0.982053 0.962019 0.067955
0.070695 0.070083 0.176214
0.158116 0.068330 0.172479
0.261878 0.066625 0.168602
0.374834 0.064997 0.164621
0.497228 0.063471 0.160584
0.621184 0.062149 0.156781
0.738426 0.061080 0.153443
0.848619 0.060219 0.150532
0.951472 0.059526 0.148012
0.065220 0.151557 0.164215
0.150110 0.149383 0.160965
0.256051 0.147167 0.157623
0.371234 0.144944 0.154233
0.495869 0.142754 0.150846
0.621916 0.140764 0.147717
0.740967 0.139092 0.145033
0.852708 0.137707 0.142755
0.956869 0.136579 0.140845
0.061199 0.253205 0.153133
0.143000 0.251937 0.150451
0.251129 0.250692 0.147741
0.368527 0.249507 0.145055
0.495367 0.248421 0.142453
0.623433 0.247533 0.140147
0.744192 0.246891 0.138276
0.857350 0.246469 0.136799
0.962660 0.246241 0.135679
0.058538 0.367837 0.143626
0.137330 0.367446 0.141634
0.247609 0.367144 0.139701
0.367153 0.366967 0.137894
0.496084 0.366960 0.136296
0.626009 0.367156 0.135076
0.748263 0.367511 0.134306
0.862339 0.367942 0.133930
0.967863 0.368535 0.133992
0.057064 0.495828 0.136655
0.133915 0.496257 0.135564
0.246268 0.496841 0.134681
0.368244 0.497406 0.134072
0.499433 0.498053 0.133926
0.630854 0.498974 0.134642
0.753530 0.500125 0.136170
0.867135 0.501160 0.137578
0.971749 0.502090 0.138869
0.057107 0.627609 0.133905
0.136939 0.628186 0.134167
0.252094 0.628980 0.135350
0.375575 0.629840 0.136874
0.507004 0.630701 0.138486
0.637713 0.631506 0.140081
0.759229 0.632214 0.141557
0.871658 0.632837 0.142917
0.975114 0.633383 0.144165
0.060035 0.750961 0.137747
0.147284 0.751396 0.139041
0.261881 0.751818 0.140426
0.384414 0.752220 0.141901
0.514705 0.752595 0.143463
0.644169 0.752917 0.145008
0.764438 0.753173 0.146437
0.875645 0.753373 0.147754
0.977922 0.753526 0.148961
0.064662 0.863772 0.142412
0.157755 0.863817 0.143668
0.271438 0.863820 0.145013
0.392910 0.863774 0.146445
0.521987 0.863670 0.147960
0.650165 0.863514 0.149458
0.769174 0.863321 0.150843
0.879163 0.863102 0.152119
0.980277 0.862867 0.153288
0.070472 0.966079 0.146613
0.167815 0.965749 0.147835
0.280538 0.965349 0.149143
0.400923 0.964869 0.150534
0.528780 0.964302 0.152006
0.655685 0.963681 0.153460
0.773458 0.963053 0.154805
0.882260 0.962429 0.156042
0.982248 0.961817 0.157175
0.069995 0.069411 0.277428
0.157167 0.067723 0.274521
0.261175 0.066083 0.271515
0.374383 0.064519 0.268447
0.497031 0.063056 0.265356
0.621226 0.061791 0.262467
0.738676 0.060771 0.259955
0.849049 0.059951 0.257786
0.952055 0.059293 0.255929
0.064728 0.150735 0.268135
0.149308 0.148606 0.265647
0.255479 0.146438 0.263104
0.370895 0.144269 0.260547
0.495765 0.142138 0.258019
0.622029 0.140210 0.255713
0.741265 0.138599 0.253766
0.853163 0.137272 0.252144
0.957454 0.136200 0.250814
0.060881 0.252720 0.259723
0.142370 0.251493 0.257726
0.250712 0.250295 0.255731
0.368323 0.249162 0.253782
0.495372 0.248134 0.251932
0.623628 0.247307 0.250338
0.744544 0.246726 0.249095
0.857829 0.246365 0.248168
0.963237 0.246198 0.247526
0.058357 0.367677 0.252760
0.136908 0.367325 0.251360
0.247380 0.367068 0.250037
0.367113 0.366943 0.248849
0.496226 0.366994 0.247870
0.626308 0.367255 0.247223
0.748677 0.367638 0.246859
0.862766 0.368134 0.246772
0.968251 0.368819 0.247062
0.056988 0.495972 0.248082
0.133768 0.496440 0.247465
0.246350 0.497047 0.247045
0.368644 0.497581 0.246775
0.499950 0.498284 0.246928
0.631453 0.499343 0.247950
0.754037 0.500482 0.249297
0.867545 0.501506 0.250526
0.972063 0.502427 0.251645
0.057246 0.627812 0.246839
0.137715 0.628429 0.247335
0.252985 0.629259 0.248578
0.376389 0.630102 0.249914
0.507721 0.630947 0.251316
0.638321 0.631738 0.252691
0.759725 0.632433 0.253954
0.872044 0.633044 0.255109
0.975393 0.633581 0.256163
0.060428 0.751128 0.250677
0.148319 0.751547 0.251798
0.262831 0.751954 0.252990
0.385264 0.752340 0.254250
0.515438 0.752700 0.255574
0.644778 0.753007 0.256875
0.764924 0.753250 0.258070
0.876011 0.753438 0.259165
0.978175 0.753582 0.260162
0.065223 0.863797 0.254687
0.158840 0.863827 0.255751
0.272423 0.863816 0.256883
0.393782 0.863754 0.258081
0.522730 0.863636 0.259340
0.650773 0.863464 0.260577
0.769651 0.863258 0.261713
0.879513 0.863027 0.262753
0.980507 0.862782 0.263700
0.071200 0.965968 0.258225
0.168933 0.965624 0.259241
0.281547 0.965209 0.260322
0.401809 0.964715 0.261465
0.529528 0.964132 0.262667
0.656290 0.963496 0.263846
0.773925 0.962855 0.264929
0.882595 0.962218 0.265920
0.982458 0.961595 0.266822
0.069271 0.068717 0.386863
0.156164 0.067096 0.384828
0.260434 0.065523 0.382742
0.373911 0.064027 0.380636
0.496830 0.062630 0.378540
0.621280 0.061424 0.376612
0.738951 0.060455 0.374966
0.849514 0.059678 0.373573
0.952683 0.059057 0.372409
0.064221 0.149871 0.380423
0.148466 0.147789 0.378736
0.254881 0.145674 0.377035
0.370547 0.143563 0.375351
0.495665 0.141497 0.373721
0.622159 0.139636 0.372275
0.741591 0.138090 0.371096
0.853654 0.136827 0.370155
0.958082 0.135817 0.369427
0.060556 0.252215 0.374815
0.141715 0.251033 0.373535
0.250281 0.249886 0.372286
0.368119 0.248810 0.371105
0.495391 0.247845 0.370036
0.623847 0.247085 0.369179
0.744929 0.246571 0.368581
0.858347 0.246277 0.368217
0.963856 0.246178 0.368058
0.058175 0.367521 0.370507
0.136480 0.367213 0.369720
0.247155 0.367005 0.369026
0.367090 0.366935 0.368476
0.496395 0.367051 0.368128
0.626643 0.367385 0.368056
0.749130 0.367796 0.368003
0.863224 0.368373 0.368168
0.968653 0.369185 0.368661
0.056915 0.496142 0.368189
0.133643 0.496653 0.368052
0.246625 0.497224 0.368015
0.369121 0.497783 0.368051
0.500549 0.498563 0.368462
0.632098 0.499736 0.369598
0.754580 0.500861 0.370742
0.867984 0.501875 0.371773
0.972397 0.502786 0.372702
0.057422 0.628041 0.368314
0.138720 0.628735 0.369050
0.253950 0.629554 0.370135
0.377268 0.630379 0.371263
0.508494 0.631206 0.372432
0.638974 0.631982 0.373565
0.760258 0.632664 0.374594
0.872457 0.633264 0.375525
0.975691 0.633790 0.376366
0.060869 0.751301 0.371903
0.149438 0.751704 0.372833
0.263857 0.752094 0.373813
0.386181 0.752464 0.374837
0.516228 0.752808 0.375902
0.645432 0.753100 0.376936
0.765446 0.753329 0.377876
0.876404 0.753505 0.378728
0.978444 0.753638 0.379497
0.065847 0.863818 0.375193
0.160010 0.863833 0.376047
0.273485 0.863806 0.376947
0.394720 0.863728 0.377890
0.523529 0.863593 0.378870
0.651426 0.863406 0.379822
0.770162 0.863186 0.380687
0.879887 0.862943 0.381471
0.980751 0.862686 0.382178
0.072004 0.965843 0.378008
0.170138 0.965485 0.378799
0.282633 0.965054 0.379633
0.402762 0.964544 0.380506
0.530332 0.963945 0.381414
0.656939 0.963293 0.382295
0.774425 0.962637 0.383095
0.882953 0.961987 0.383819
0.982681 0.961353 0.384471
0.068527 0.068005 0.504649
0.155113 0.066454 0.503529
0.259661 0.064952 0.502408
0.373422 0.063525 0.501306
0.496629 0.062196 0.500251
0.621347 0.061052 0.499325
0.739251 0.060136 0.498579
0.850015 0.059403 0.497993
0.953355 0.058819 0.497546
0.063705 0.148967 0.501197
0.147586 0.146936 0.500348
0.254262 0.144879 0.499523
0.370191 0.142831 0.498749
0.495573 0.140835 0.498053
0.622308 0.139047 0.497498
0.741947 0.137571 0.497111
0.854183 0.136378 0.496872
0.958753 0.135436 0.496758
0.060227 0.251695 0.498514
0.141037 0.250563 0.497978
0.249843 0.249470 0.497502
0.367920 0.248455 0.497114
0.495426 0.247559 0.496848
0.624094 0.246872 0.496743
0.745348 0.246432 0.496802
0.858903 0.246213 0.497003
0.964517 0.246189 0.497327
0.057994 0.367374 0.496952
0.136050 0.367112 0.496793
0.246941 0.366958 0.496743
0.367088 0.366950 0.496837
0.496595 0.367138 0.497123
0.627061 0.367516 0.497508
0.749624 0.367993 0.497736
0.863711 0.368673 0.498104
0.969059 0.369689 0.498771
0.056848 0.496343 0.497034
0.133547 0.496901 0.497374
0.247008 0.497415 0.497602
0.369687 0.498019 0.497893
0.501261 0.498917 0.498514
0.632789 0.500151 0.499554
0.755161 0.501263 0.500472
0.868450 0.502265 0.501285
0.972749 0.503167 0.502005
0.057648 0.628306 0.498311
0.139834 0.629062 0.499109
0.254992 0.629861 0.499989
0.378214 0.630668 0.500888
0.509323 0.631478 0.501801
0.639674 0.632238 0.502668
0.760826 0.632906 0.503441
0.872897 0.633494 0.504128
0.976006 0.634010 0.504738
0.061361 0.751479 0.501393
0.150642 0.751865 0.502113
0.264960 0.752238 0.502859
0.387164 0.752591 0.503626
0.517075 0.752918 0.504408
0.646133 0.753194 0.505152
0.766003 0.753408 0.505815
0.876822 0.753572 0.506405
0.978728 0.753693 0.506927
0.066537 0.863834 0.503895
0.161267 0.863833 0.504519
0.274625 0.863789 0.505167
0.395726 0.863695 0.505832
0.524385 0.863543 0.506510
0.652124 0.863339 0.507154
0.770707 0.863104 0.507726
0.880285 0.862848 0.508233
0.981010 0.862579 0.508681
0.072888 0.965703 0.505922
0.171432 0.965329 0.506470
0.283798 0.964882 0.507037
0.403782 0.964355 0.507618
0.531193 0.963739 0.508208
0.657634 0.963070 0.508767
0.774960 0.962398 0.509260
0.883334 0.961735 0.509695
0.982917 0.961088 0.510077
0.067816 0.067324 0.623195
0.154083 0.065840 0.622971
0.258907 0.064406 0.622792
0.372950 0.063047 0.622673
0.496441 0.061784 0.622631
0.621425 0.060700 0.622680
0.739559 0.059834 0.622809
0.850521 0.059144 0.623004
0.954027 0.058596 0.623249
0.063213 0.148085 0.622665
0.146730 0.146107 0.622632
0.253662 0.144107 0.622661
0.369852 0.142123 0.622771
0.495494 0.140198 0.622979
0.622469 0.138483 0.623283
0.742311 0.137080 0.623659
0.854716 0.135957 0.624090
0.959425 0.135084 0.624562
0.059917 0.251196 0.622826
0.140385 0.250114 0.623010
0.249427 0.249077 0.623280
0.367740 0.248124 0.623655
0.495478 0.247298 0.624157
0.624353 0.246686 0.624768
0.745776 0.246322 0.625445
0.859463 0.246179 0.626174
0.965140 0.246237 0.626887
0.057825 0.367246 0.623911
0.135649 0.367032 0.624352
0.246754 0.366933 0.624912
0.367110 0.366988 0.625613
0.496816 0.367251 0.626487
0.627510 0.367665 0.627159
0.750128 0.368226 0.627602
0.864199 0.369032 0.628096
0.969457 0.370206 0.628751
0.056791 0.496563 0.626259
0.133658 0.497116 0.626940
0.247467 0.497619 0.627361
0.370315 0.498283 0.627831
0.502059 0.499343 0.628552
0.633482 0.500561 0.629353
0.755740 0.501660 0.630039
0.868913 0.502651 0.630627
0.973098 0.503543 0.631133
0.057938 0.628614 0.628347
0.140961 0.629382 0.629016
0.256041 0.630162 0.629683
0.379166 0.630952 0.630345
0.510154 0.631745 0.630995
0.640373 0.632489 0.631591
0.761394 0.633144 0.632102
0.873334 0.633720 0.632540
0.976318 0.634225 0.632916
0.061876 0.751650 0.630711
0.151854 0.752020 0.631217
0.266068 0.752376 0.631725
0.388151 0.752713 0.632229
0.517922 0.753022 0.632723
0.646833 0.753283 0.633172
0.766558 0.753483 0.633554
0.877237 0.753634 0.633877
0.979010 0.753744 0.634149
0.067251 0.863843 0.632408
0.162530 0.863827 0.632799
0.275768 0.863767 0.633190
0.396734 0.863656 0.633575
0.525241 0.863487 0.633946
0.652822 0.863267 0.634278
0.771251 0.863018 0.634553
0.880682 0.862748 0.634780
0.981266 0.862467 0.634965
0.073797 0.965557 0.633635
0.172729 0.965167 0.633936
0.284965 0.964705 0.634232
0.404805 0.964161 0.634518
0.532054 0.963527 0.634787
0.658328 0.962842 0.635020
0.775493 0.962155 0.635204
0.883714 0.961478 0.635348
0.983151 0.960819 0.635458
0.067179 0.066713 0.734714
0.153139 0.065291 0.735311
0.258219 0.063919 0.735993
0.372524 0.062621 0.736771
0.496278 0.061418 0.737653
0.621507 0.060388 0.738588
0.739854 0.059568 0.739511
0.850997 0.058916 0.740411
0.954657 0.058401 0.741281
0.062775 0.147281 0.736855
0.145950 0.145351 0.737565
0.253121 0.143406 0.738372
0.369552 0.141483 0.739283
0.495434 0.139624 0.740309
0.622629 0.137980 0.741389
0.742658 0.136645 0.742449
0.855218 0.135590 0.743480
0.960052 0.134783 0.744472
0.059643 0.250749 0.739602
0.139799 0.249713 0.740438
0.249059 0.248730 0.741380
0.367591 0.247836 0.742440
0.495542 0.247077 0.743628
0.624606 0.246537 0.744873
0.746183 0.246245 0.746093
0.859990 0.246177 0.747278
0.965651 0.246318 0.748159
0.057679 0.367145 0.743069
0.135303 0.366977 0.744045
0.246604 0.366930 0.745143
0.367154 0.367046 0.746375
0.497043 0.367381 0.747754
0.627954 0.367829 0.748533
0.750611 0.368481 0.749108
0.864657 0.369466 0.749640
0.969823 0.370686 0.750145
0.056747 0.496787 0.747410
0.133939 0.497293 0.748230
0.247962 0.497825 0.748806
0.370965 0.498562 0.749366
0.502809 0.499737 0.750003
0.634131 0.500940 0.750573
0.756281 0.502027 0.751033
0.869344 0.503009 0.751406
0.973420 0.503892 0.751707
0.058254 0.628924 0.749854
0.142025 0.629674 0.750339
0.257030 0.630438 0.750802
0.380059 0.631212 0.751235
0.510934 0.631990 0.751633
0.641028 0.632720 0.751970
0.761923 0.633363 0.752232
0.873741 0.633928 0.752434
0.976606 0.634423 0.752586
0.062378 0.751803 0.751468
0.152993 0.752158 0.751768
0.267108 0.752500 0.752049
0.389076 0.752821 0.752303
0.518716 0.753116 0.752524
0.647488 0.753361 0.752694
0.767077 0.753549 0.752809
0.877624 0.753688 0.752880
0.979271 0.753788 0.752915
0.067940 0.863846 0.752397
0.163715 0.863815 0.752567
0.276840 0.863741 0.752715
0.397679 0.863615 0.752833
0.526043 0.863430 0.752914
0.653475 0.863195 0.752950
0.771759 0.862932 0.752945
0.881051 0.862650 0.752907
0.981503 0.862359 0.752844
0.074671 0.965415 0.752866
0.173946 0.965011 0.752933
0.286060 0.964533 0.752973
0.405763 0.963974 0.752979
0.532860 0.963324 0.752945
0.658977 0.962624 0.752870
0.775990 0.961923 0.752762
0.884066 0.961233 0.752631
0.983366 0.960562 0.752484
0.066610 0.066168 0.839061
0.152278 0.064802 0.840405
0.257594 0.063486 0.841872
0.372140 0.062243 0.843465
0.496137 0.061093 0.845186
0.621592 0.060112 0.846924
0.740134 0.059333 0.848563
0.851443 0.058716 0.850099
0.955243 0.058230 0.851529
0.062386 0.146550 0.843633
0.145242 0.144667 0.845019
0.252633 0.142773 0.846528
0.369287 0.140906 0.848164
0.495390 0.139111 0.849928
0.622787 0.137532 0.851704
0.742986 0.136263 0.853375
0.855687 0.135272 0.854938
0.960635 0.134528 0.856390
0.059402 0.250350 0.848721
0.139273 0.249358 0.850143
0.248735 0.248424 0.851690
0.367468 0.247586 0.853361
0.495615 0.246891 0.855158
0.624852 0.246419 0.856962
0.746569 0.246197 0.858654
0.860483 0.246202 0.860230
0.966104 0.246426 0.861126
0.057553 0.367067 0.854322
0.135004 0.366943 0.855771
0.246488 0.366945 0.857342
0.367215 0.367120 0.859035
0.497354 0.367495 0.860670
0.628387 0.368005 0.861569
0.751071 0.368756 0.862197
0.865083 0.369917 0.862647
0.970159 0.371132 0.862978
0.056722 0.497004 0.860378
0.134279 0.497463 0.861212
0.248479 0.498034 0.861880
0.371644 0.498865 0.862439
0.503511 0.500098 0.862890
0.634735 0.501290 0.863239
0.756783 0.502366 0.863485
0.869743 0.503339 0.863652
0.973717 0.504214 0.863759
0.058564 0.629206 0.862796
0.143024 0.629940 0.863105
0.257956 0.630690 0.863371
0.380895 0.631449 0.863587
0.511661 0.632213 0.863746
0.641637 0.632931 0.863837
0.762415 0.633562 0.863864
0.874118 0.634118 0.863843
0.976872 0.634604 0.863784
0.062862 0.751941 0.863693
0.154058 0.752282 0.863799
0.268079 0.752610 0.863864
0.389940 0.752918 0.863882
0.519456 0.753198 0.863844
0.648097 0.753431 0.863751
0.767558 0.753606 0.863615
0.877982 0.753735 0.863448
0.979511 0.753825 0.863260
0.068600 0.863844 0.863895
0.164821 0.863800 0.863856
0.277841 0.863712 0.863774
0.398560 0.863572 0.863641
0.526790 0.863373 0.863450
0.654082 0.863124 0.863209
0.772230 0.862849 0.862940
0.881392 0.862556 0.862653
0.981721 0.862254 0.862358
0.075503 0.965277 0.863649
0.175081 0.964860 0.863496
0.287080 0.964369 0.863295
0.406655 0.963796 0.863039
0.533610 0.963131 0.862720
0.659580 0.962416 0.862355
0.776452 0.961703 0.861974
0.884393 0.961001 0.861586
0.983565 0.960320 0.861197
0.066103 0.065682 0.936104
0.151496 0.064366 0.938126
0.257029 0.063101 0.940304
0.371797 0.061908 0.942635
0.496016 0.060807 0.945113
0.621678 0.059869 0.947574
0.740398 0.059127 0.949857
0.851858 0.058541 0.951962
0.955785 0.058081 0.953893
0.062041 0.145889 0.942878
0.144603 0.144049 0.944874
0.252197 0.142203 0.947017
0.369054 0.140389 0.949305
0.495360 0.138653 0.951729
0.622941 0.137136 0.954127
0.743295 0.135928 0.956342
0.856124 0.134997 0.958375
0.961174 0.134313 0.960229
0.059190 0.249995 0.950075
0.138805 0.249045 0.952023
0.248452 0.248157 0.954108
0.367368 0.247372 0.956323
0.495693 0.246737 0.958657
0.625089 0.246330 0.960950
0.746931 0.246175 0.963049
0.860909 0.246252 0.964810
0.966511 0.246554 0.965742
0.057444 0.367009 0.957577
0.134750 0.366926 0.959443
0.246400 0.366976 0.961427
0.367290 0.367206 0.963515
0.497684 0.367611 0.965244
0.628805 0.368191 0.966219
0.751510 0.369054 0.966826
0.865475 0.370333 0.967109
0.970467 0.371542 0.967274
0.056753 0.497160 0.964938
0.134654 0.497629 0.965836
0.249009 0.498245 0.966536
0.372367 0.499205 0.966991
0.504163 0.500430 0.967238
0.635296 0.501610 0.967376
0.757247 0.502677 0.967420
0.870110 0.503641 0.967394
0.973990 0.504510 0.967317
0.058865 0.629461 0.967195
0.143955 0.630182 0.967336
0.258818 0.630919 0.967416
0.381671 0.631666 0.967428
0.512335 0.632417 0.967361
0.642202 0.633123 0.967221
0.762870 0.633744 0.967028
0.874465 0.634290 0.966797
0.977116 0.634769 0.966542
0.063326 0.752064 0.967415
0.155049 0.752393 0.967337
0.268982 0.752709 0.967200
0.390740 0.753004 0.966996
0.520142 0.753271 0.966717
0.648661 0.753492 0.966376
0.768003 0.753656 0.966005
0.878312 0.753775 0.965617
0.979732 0.753857 0.965221
0.069228 0.863837 0.966934
0.165848 0.863781 0.966700
0.278769 0.863681 0.966403
0.399376 0.863529 0.966035
0.527481 0.863316 0.965588
0.654643 0.863055 0.965087
0.772666 0.862768 0.964573
0.881707 0.862465 0.964054
0.981921 0.862154 0.963542
0.076290 0.965146 0.966018
0.176133 0.964717 0.965660
0.288026 0.964213 0.965234
0.407482 0.963627 0.964732
0.534305 0.962949 0.964147
0.660138 0.962221 0.963513
0.776878 0.961496 0.962877
0.884694 0.960784 0.962248
0.983748 0.960093 0.961636
