apps/editor/assets/luts/paper_ink.cube
# Carbon & Bronze — generado por scripts/make_lut.py
# fuerza=0.45 contraste=0.16 desaturacion=0.06
TITLE "%s" % args.preset
LUT_3D_SIZE 5
DOMAIN_MIN 0.0 0.0 0.0
DOMAIN_MAX 1.0 1.0 1.0
0.071367 0.070726 0.084886
0.262542 0.067146 0.078163
0.497419 0.063871 0.072194
0.738200 0.061380 0.067849
0.950933 0.059752 0.065165
0.061507 0.253668 0.067682
0.251531 0.251074 0.065045
0.495373 0.248703 0.062978
0.743871 0.247062 0.061712
0.962125 0.246302 0.061083
0.057142 0.495707 0.061306
0.246267 0.496645 0.060866
0.498986 0.497859 0.060681
0.753061 0.499792 0.060926
0.971456 0.501775 0.061402
0.059686 0.750801 0.061189
0.261005 0.751688 0.061731
0.514027 0.752495 0.062491
0.763987 0.753098 0.063389
0.977687 0.753472 0.064273
0.069814 0.966177 0.063445
0.279607 0.965474 0.064339
0.528089 0.964456 0.065490
0.773025 0.963233 0.066762
0.982053 0.962019 0.067955
0.069995 0.069411 0.277428
0.261175 0.066083 0.271515
0.497031 0.063056 0.265356
0.738676 0.060771 0.259955
0.952055 0.059293 0.255929
0.060881 0.252720 0.259723
0.250712 0.250295 0.255731
0.495372 0.248134 0.251932
0.744544 0.246726 0.249095
0.963237 0.246198 0.247526
0.056988 0.495972 0.248082
0.246350 0.497047 0.247045
0.499950 0.498284 0.246928
0.754037 0.500482 0.249297
0.972063 0.502427 0.251645
0.060428 0.751128 0.250677
0.262831 0.751954 0.252990
0.515438 0.752700 0.255574
0.764924 0.753250 0.258070
0.978175 0.753582 0.260162
0.071200 0.965968 0.258225
0.281547 0.965209 0.260322
0.529528 0.964132 0.262667
0.773925 0.962855 0.264929
0.982458 0.961595 0.266822
0.068527 0.068005 0.504649
0.259661 0.064952 0.502408
0.496629 0.062196 0.500251
0.739251 0.060136 0.498579
0.953355 0.058819 0.497546
0.060227 0.251695 0.498514
0.249843 0.249470 0.497502
0.495426 0.247559 0.496848
0.745348 0.246432 0.496802
0.964517 0.246189 0.497327
0.056848 0.496343 0.497034
0.247008 0.497415 0.497602
0.501261 0.498917 0.498514
0.755161 0.501263 0.500472
0.972749 0.503167 0.502005
0.061361 0.751479 0.501393
0.264960 0.752238 0.502859
0.517075 0.752918 0.504408
0.766003 0.753408 0.505815
0.978728 0.753693 0.506927
0.072888 0.965703 0.505922
0.283798 0.964882 0.507037
0.531193 0.963739 0.508208
0.774960 0.962398 0.509260
0.982917 0.961088 0.510077
0.067179 0.066713 0.734714
0.258219 0.063919 0.735993
0.496278 0.061418 0.737653
0.739854 0.059568 0.739511
0.954657 0.058401 0.741281
0.059643 0.250749 0.739602
0.249059 0.248730 0.741380
0.495542 0.247077 0.743628
0.746183 0.246245 0.746093
0.965651 0.246318 0.748159
0.056747 0.496787 0.747410
0.247962 0.497825 0.748806
0.502809 0.499737 0.750003
0.756281 0.502027 0.751033
0.973420 0.503892 0.751707
0.062378 0.751803 0.751468
0.267108 0.752500 0.752049
0.518716 0.753116 0.752524
0.767077 0.753549 0.752809
0.979271 0.753788 0.752915
0.074671 0.965415 0.752866
0.286060 0.964533 0.752973
0.532860 0.963324 0.752945
0.775990 0.961923 0.752762
0.983366 0.960562 0.752484
0.066103 0.065682 0.936104
0.257029 0.063101 0.940304
0.496016 0.060807 0.945113
0.740398 0.059127 0.949857
0.955785 0.058081 0.953893
0.059190 0.249995 0.950075
0.248452 0.248157 0.954108
0.495693 0.246737 0.958657
0.746931 0.246175 0.963049
0.966511 0.246554 0.965742
0.056753 0.497160 0.964938
0.249009 0.498245 0.966536
0.504163 0.500430 0.967238
0.757247 0.502677 0.967420
0.973990 0.504510 0.967317
0.063326 0.752064 0.967415
0.268982 0.752709 0.967200
0.520142 0.753271 0.966717
0.768003 0.753656 0.966005
0.979732 0.753857 0.965221
0.076290 0.965146 0.966018
0.288026 0.964213 0.965234
0.534305 0.962949 0.964147
0.776878 0.961496 0.962877
0.983748 0.960093 0.961636
