apps/editor/assets/luts/paper_ink.cube
# Carbon & Bronze — generado por scripts/make_lut.py
# fuerza=0.45 contraste=0.16 desaturacion=0.06
TITLE "%s" % args.preset
LUT_3D_SIZE 33
DOMAIN_MIN 0.0 0.0 0.0
DOMAIN_MAX 1.0 1.0 1.0
0.071367 0.070726 0.084886
0.088133 0.070270 0.084021
0.110610 0.069815 0.083161
0.134532 0.069363 0.082307
0.159009 0.068912 0.081460
0.184045 0.068465 0.080621
0.209643 0.068022 0.079791
0.235807 0.067582 0.078971
0.262542 0.067146 0.078163
0.289851 0.066716 0.077366
0.317739 0.066290 0.076582
0.346208 0.065871 0.075812
0.375264 0.065457 0.075056
0.404909 0.065050 0.074316
0.435147 0.064650 0.073592
0.465983 0.064257 0.072884
0.497419 0.063871 0.072194
0.528959 0.063499 0.071533
0.560099 0.063147 0.070909
0.590832 0.062812 0.070321
0.621153 0.062494 0.069766
0.651055 0.062193 0.069243
0.680534 0.061907 0.068750
0.709584 0.061636 0.068286
0.738200 0.061380 0.067849
0.766376 0.061136 0.067438
0.794109 0.060905 0.067051
0.821393 0.060686 0.066686
0.848224 0.060479 0.066344
0.874598 0.060282 0.066021
0.900510 0.060096 0.065718
0.925956 0.059920 0.065433
0.950933 0.059752 0.065165
0.069809 0.085802 0.082064
0.086026 0.085213 0.081272
0.108251 0.084623 0.080486
0.132305 0.084034 0.079706
0.156916 0.083445 0.078934
0.182086 0.082857 0.078170
0.207820 0.082270 0.077415
0.234121 0.081686 0.076670
0.260994 0.081105 0.075936
0.288441 0.080527 0.075214
0.316468 0.079953 0.074504
0.345078 0.079384 0.073808
0.374274 0.078819 0.073126
0.404060 0.078260 0.072459
0.434439 0.077707 0.071808
0.465417 0.077160 0.071172
0.496995 0.076621 0.070554
0.528674 0.076097 0.069962
0.559948 0.075596 0.069404
0.590811 0.075118 0.068880
0.621258 0.074661 0.068386
0.651282 0.074225 0.067922
0.680878 0.073808 0.067486
0.710042 0.073411 0.067075
0.738767 0.073031 0.066690
0.767049 0.072669 0.066328
0.794884 0.072324 0.065987
0.822266 0.071995 0.065668
0.849191 0.071681 0.065368
0.875655 0.071381 0.065086
0.901654 0.071096 0.064822
0.927184 0.070825 0.064575
0.952241 0.070566 0.064342
0.068344 0.106344 0.079434
0.084014 0.105686 0.078714
0.105925 0.105021 0.077999
0.130112 0.104350 0.077291
0.154857 0.103674 0.076591
0.180162 0.102992 0.075899
0.206032 0.102306 0.075216
0.232471 0.101617 0.074543
0.259482 0.100923 0.073881
0.287069 0.100227 0.073230
0.315236 0.099530 0.072592
0.343986 0.098837 0.071967
0.373323 0.098148 0.071355
0.403250 0.097464 0.070758
0.433771 0.096785 0.070176
0.464890 0.096113 0.069609
0.496610 0.095448 0.069059
0.528428 0.094801 0.068533
0.559837 0.094181 0.068039
0.590830 0.093588 0.067575
0.621402 0.093020 0.067140
0.651548 0.092476 0.066731
0.681261 0.091956 0.066348
0.710537 0.091459 0.065988
0.739371 0.090984 0.065651
0.767758 0.090530 0.065335
0.795693 0.090097 0.065039
0.823172 0.089683 0.064761
0.850190 0.089288 0.064502
0.876744 0.088911 0.064259
0.902829 0.088552 0.064031
0.928441 0.088209 0.063818
0.953576 0.087883 0.063619
0.066972 0.128957 0.076997
0.082097 0.128354 0.076346
0.103639 0.127746 0.075700
0.127959 0.127133 0.075062
0.152838 0.126515 0.074430
0.178280 0.125893 0.073807
0.204287 0.125268 0.073193
0.230864 0.124640 0.072589
0.258014 0.124009 0.071996
0.285740 0.123377 0.071414
0.314047 0.122743 0.070844
0.342938 0.122109 0.070286
0.372416 0.121475 0.069742
0.402485 0.120842 0.069212
0.433148 0.120210 0.068695
0.464408 0.119580 0.068194
0.496269 0.118953 0.067708
0.528226 0.118339 0.067245
0.559769 0.117747 0.066811
0.590891 0.117178 0.066405
0.621589 0.116630 0.066024
0.651855 0.116104 0.065667
0.681684 0.115598 0.065334
0.711072 0.115112 0.065022
0.740014 0.114646 0.064730
0.768504 0.114199 0.064457
0.796539 0.113770 0.064202
0.824113 0.113360 0.063964
0.851223 0.112968 0.063741
0.877865 0.112593 0.063534
0.904034 0.112234 0.063340
0.929727 0.111892 0.063159
0.954939 0.111566 0.062990
0.065694 0.152332 0.074755
0.080280 0.151784 0.074169
0.101399 0.151233 0.073590
0.125853 0.150677 0.073017
0.150867 0.150117 0.072452
0.176445 0.149555 0.071895
0.202590 0.148991 0.071347
0.229305 0.148424 0.070809
0.256594 0.147857 0.070281
0.284460 0.147288 0.069764
0.312908 0.146720 0.069258
0.341939 0.146151 0.068765
0.371558 0.145584 0.068285
0.401768 0.145019 0.067817
0.432572 0.144456 0.067364
0.463974 0.143896 0.066924
0.495975 0.143340 0.066499
0.528071 0.142797 0.066095
0.559747 0.142275 0.065717
0.590998 0.141774 0.065364
0.621820 0.141294 0.065035
0.652205 0.140833 0.064727
0.682150 0.140392 0.064440
0.711649 0.139970 0.064172
0.740697 0.139567 0.063922
0.769289 0.139181 0.063689
0.797422 0.138813 0.063472
0.825090 0.138463 0.063270
0.852290 0.138129 0.063082
0.879018 0.137811 0.062907
0.905269 0.137508 0.062744
0.931041 0.137221 0.062593
0.956329 0.136949 0.062452
0.064509 0.176480 0.072705
0.078562 0.175987 0.072182
0.099215 0.175492 0.071666
0.123800 0.174994 0.071156
0.148950 0.174493 0.070654
0.174665 0.173991 0.070160
0.200947 0.173487 0.069674
0.227801 0.172982 0.069198
0.255229 0.172477 0.068732
0.283235 0.171972 0.068277
0.311823 0.171468 0.067833
0.340995 0.170966 0.067400
0.370755 0.170466 0.066980
0.401106 0.169968 0.066572
0.432050 0.169474 0.066177
0.463592 0.168984 0.065795
0.495734 0.168499 0.065427
0.527967 0.168027 0.065078
0.559776 0.167575 0.064752
0.591155 0.167142 0.064449
0.622099 0.166729 0.064167
0.652603 0.166335 0.063905
0.682661 0.165959 0.063661
0.712269 0.165601 0.063434
0.741422 0.165260 0.063223
0.770115 0.164936 0.063027
0.798343 0.164629 0.062845
0.826104 0.164338 0.062676
0.853392 0.164062 0.062519
0.880204 0.163801 0.062374
0.906535 0.163555 0.062239
0.932383 0.163323 0.062114
0.957743 0.163105 0.061999
0.063418 0.201411 0.070846
0.076946 0.200974 0.070383
0.097132 0.200535 0.069926
0.121809 0.200094 0.069475
0.147094 0.199652 0.069033
0.172946 0.199209 0.068598
0.199366 0.198766 0.068172
0.226358 0.198323 0.067755
0.253925 0.197880 0.067347
0.282071 0.197439 0.066950
0.310799 0.197000 0.066563
0.340111 0.196563 0.066187
0.370011 0.196130 0.065823
0.400502 0.195700 0.065470
0.431587 0.195275 0.065130
0.463269 0.194855 0.064802
0.495550 0.194440 0.064487
0.527919 0.194039 0.064189
0.559859 0.193656 0.063912
0.591364 0.193292 0.063655
0.622430 0.192946 0.063417
0.653050 0.192618 0.063196
0.683220 0.192307 0.062991
0.712935 0.192013 0.062801
0.742191 0.191735 0.062626
0.770982 0.191473 0.062463
0.799305 0.191226 0.062313
0.827155 0.190995 0.062174
0.854529 0.190777 0.062046
0.881422 0.190574 0.061927
0.907830 0.190384 0.061818
0.933752 0.190208 0.061717
0.959182 0.190044 0.061624
0.062417 0.227138 0.069173
0.075434 0.226756 0.068766
0.095164 0.226373 0.068365
0.119886 0.225989 0.067971
0.145308 0.225605 0.067585
0.171296 0.225221 0.067206
0.197853 0.224838 0.066835
0.224984 0.224457 0.066473
0.252690 0.224077 0.066120
0.280975 0.223699 0.065777
0.309842 0.223324 0.065444
0.339294 0.222953 0.065121
0.369334 0.222586 0.064809
0.399965 0.222223 0.064508
0.431189 0.221867 0.064218
0.463009 0.221516 0.063940
0.495427 0.221172 0.063673
0.527931 0.220841 0.063422
0.560001 0.220528 0.063190
0.591631 0.220232 0.062975
0.622816 0.219954 0.062777
0.653550 0.219691 0.062593
0.683830 0.219445 0.062424
0.713651 0.219215 0.062268
0.743006 0.219000 0.062125
0.771893 0.218799 0.061992
0.800308 0.218613 0.061870
0.828245 0.218441 0.061758
0.855701 0.218282 0.061655
0.882672 0.218137 0.061561
0.909155 0.218003 0.061474
0.935147 0.217883 0.061394
0.960643 0.217773 0.061321
0.061507 0.253668 0.067682
0.074024 0.253341 0.067328
0.093314 0.253014 0.066980
0.118042 0.252687 0.066638
0.143599 0.252361 0.066304
0.169723 0.252036 0.065977
0.196418 0.251713 0.065658
0.223686 0.251392 0.065347
0.251531 0.251074 0.065045
0.279954 0.250760 0.064752
0.308960 0.250449 0.064469
0.338551 0.250143 0.064195
0.368730 0.249842 0.063931
0.399499 0.249547 0.063677
0.430860 0.249258 0.063433
0.462818 0.248977 0.063201
0.495373 0.248703 0.062978
0.528009 0.248442 0.062770
0.560206 0.248198 0.062578
0.591959 0.247971 0.062402
0.623261 0.247759 0.062239
0.654108 0.247562 0.062090
0.684495 0.247381 0.061953
0.714418 0.247214 0.061827
0.743871 0.247062 0.061712
0.772851 0.246923 0.061606
0.801353 0.246797 0.061509
0.829374 0.246685 0.061421
0.856909 0.246585 0.061340
0.883955 0.246497 0.061267
0.910509 0.246421 0.061200
0.936566 0.246356 0.061139
0.962125 0.246302 0.061083
0.060684 0.281012 0.066366
0.072720 0.280740 0.066061
0.091587 0.280468 0.065763
0.116285 0.280197 0.065470
0.141977 0.279929 0.065184
0.168237 0.279662 0.064905
0.195069 0.279399 0.064634
0.222474 0.279139 0.064371
0.250456 0.278882 0.064115
0.279018 0.278630 0.063868
0.308161 0.278383 0.063630
0.337890 0.278141 0.063401
0.368206 0.277906 0.063181
0.399112 0.277677 0.062970
0.430610 0.277456 0.062769
0.462702 0.277244 0.062577
0.495391 0.277040 0.062395
0.528159 0.276849 0.062225
0.560481 0.276674 0.062069
0.592354 0.276514 0.061927
0.623771 0.276368 0.061797
0.654727 0.276238 0.061678
0.685218 0.276121 0.061569
0.715240 0.276018 0.061470
0.744788 0.275928 0.061379
0.773857 0.275850 0.061297
0.802444 0.275786 0.061223
0.830544 0.275733 0.061155
0.858154 0.275692 0.061094
0.885271 0.275662 0.061038
0.911890 0.275644 0.060989
0.938009 0.275635 0.060944
0.963625 0.275637 0.060903
0.059946 0.309177 0.065219
0.071520 0.308959 0.064960
0.089985 0.308742 0.064706
0.114625 0.308527 0.064458
0.140452 0.308315 0.064217
0.166848 0.308107 0.063983
0.193815 0.307902 0.063755
0.221357 0.307702 0.063535
0.249476 0.307506 0.063322
0.278174 0.307316 0.063117
0.307454 0.307132 0.062920
0.337319 0.306955 0.062731
0.367771 0.306784 0.062551
0.398812 0.306622 0.062379
0.430444 0.306468 0.062215
0.462670 0.306324 0.062060
0.495491 0.306189 0.061914
0.528387 0.306068 0.061778
0.560832 0.305961 0.061655
0.592821 0.305868 0.061542
0.624350 0.305789 0.061440
0.655412 0.305723 0.061348
0.686004 0.305671 0.061264
0.716121 0.305631 0.061188
0.745759 0.305604 0.061119
0.774914 0.305589 0.061058
0.803581 0.305585 0.061002
0.831756 0.305593 0.060953
0.859437 0.305611 0.060908
0.886619 0.305640 0.060869
0.913299 0.305680 0.060834
0.939473 0.305729 0.060803
0.965111 0.305783 0.060777
0.059291 0.338170 0.064231
0.070426 0.338005 0.064013
0.088513 0.337842 0.063801
0.113074 0.337683 0.063594
0.139035 0.337528 0.063394
0.165565 0.337376 0.063200
0.192668 0.337230 0.063012
0.220345 0.337089 0.062831
0.248599 0.336953 0.062656
0.277433 0.336825 0.062489
0.306848 0.336703 0.062329
0.336848 0.336589 0.062177
0.367434 0.336483 0.062031
0.398608 0.336386 0.061894
0.430373 0.336298 0.061764
0.462729 0.336222 0.061641
0.495679 0.336156 0.061526
0.528700 0.336103 0.061421
0.561265 0.336064 0.061325
0.593368 0.336038 0.061239
0.625004 0.336025 0.061161
0.656169 0.336025 0.061092
0.686858 0.336037 0.061029
0.717067 0.336061 0.060974
0.746790 0.336096 0.060924
0.776025 0.336143 0.060880
0.804767 0.336201 0.060841
0.833012 0.336270 0.060807
0.860743 0.336342 0.060778
0.887940 0.336413 0.060754
0.914608 0.336492 0.060733
0.940744 0.336579 0.060716
0.966346 0.336674 0.060702
0.058715 0.367997 0.063392
0.069439 0.367884 0.063213
0.087175 0.367775 0.063038
0.111644 0.367670 0.062868
0.137738 0.367570 0.062705
0.164402 0.367476 0.062546
0.191639 0.367387 0.062394
0.219450 0.367304 0.062248
0.247839 0.367228 0.062108
0.276806 0.367160 0.061974
0.306355 0.367099 0.061847
0.336488 0.367048 0.061726
0.367206 0.367005 0.061612
0.398511 0.366973 0.061505
0.430405 0.366951 0.061404
0.462890 0.366942 0.061310
0.495966 0.366944 0.061222
0.529109 0.366960 0.061143
0.561790 0.366988 0.061071
0.594002 0.367029 0.061008
0.625743 0.367082 0.060951
0.657006 0.367147 0.060902
0.687787 0.367224 0.060858
0.718081 0.367312 0.060819
0.747885 0.367407 0.060787
0.777182 0.367492 0.060759
0.805961 0.367583 0.060736
0.834216 0.367681 0.060717
0.861942 0.367787 0.060702
0.889136 0.367903 0.060691
0.915795 0.368028 0.060684
0.941915 0.368163 0.060681
0.967494 0.368308 0.060681
0.058215 0.398663 0.062693
0.068559 0.398601 0.062547
0.085977 0.398544 0.062406
0.110349 0.398493 0.062269
0.136576 0.398448 0.062138
0.163373 0.398408 0.062012
0.190742 0.398376 0.061891
0.218686 0.398351 0.061775
0.247207 0.398333 0.061665
0.276307 0.398324 0.061561
0.305988 0.398325 0.061463
0.336251 0.398335 0.061370
0.367099 0.398355 0.061283
0.398533 0.398387 0.061201
0.430554 0.398430 0.061126
0.463163 0.398487 0.061056
0.496362 0.398557 0.060992
0.529624 0.398641 0.060935
0.562416 0.398736 0.060884
0.594735 0.398844 0.060840
0.626574 0.398963 0.060802
0.657945 0.399072 0.060771
0.688823 0.399175 0.060744
0.719189 0.399283 0.060722
0.749036 0.399400 0.060706
0.778358 0.399525 0.060693
0.807150 0.399660 0.060685
0.835408 0.399805 0.060681
0.863128 0.399960 0.060681
0.890308 0.400128 0.060686
0.916944 0.400309 0.060695
0.943032 0.400504 0.060710
0.968570 0.400719 0.060732
0.057788 0.430169 0.062120
0.067789 0.430158 0.062004
0.084927 0.430153 0.061893
0.109207 0.430154 0.061785
0.135565 0.430162 0.061683
0.162493 0.430177 0.061584
0.189994 0.430200 0.061491
0.218069 0.430231 0.061402
0.246721 0.430271 0.061318
0.275952 0.430321 0.061240
0.305762 0.430381 0.061166
0.336154 0.430451 0.061097
0.367129 0.430534 0.061033
0.398689 0.430629 0.060974
0.430834 0.430737 0.060920
0.463565 0.430859 0.060871
0.496883 0.430997 0.060828
0.530264 0.431145 0.060790
0.563215 0.431264 0.060758
0.595678 0.431384 0.060733
0.627635 0.431510 0.060713
0.659078 0.431643 0.060697
0.690001 0.431786 0.060687
0.720397 0.431938 0.060681
0.750262 0.432101 0.060681
0.779591 0.432276 0.060685
0.808380 0.432466 0.060695
0.836626 0.432671 0.060712
0.864324 0.432898 0.060736
0.891470 0.433166 0.060775
0.918057 0.433448 0.060822
0.944085 0.433723 0.060869
0.969555 0.433991 0.060917
0.057431 0.462517 0.061662
0.067132 0.462555 0.061573
0.084033 0.462601 0.061487
0.108235 0.462653 0.061405
0.134723 0.462713 0.061326
0.161782 0.462782 0.061252
0.189413 0.462859 0.061183
0.217618 0.462946 0.061117
0.246400 0.463042 0.061055
0.275759 0.463149 0.060998
0.305697 0.463268 0.060945
0.336215 0.463398 0.060897
0.367315 0.463542 0.060853
0.398998 0.463699 0.060813
0.431297 0.463853 0.060779
0.464235 0.463983 0.060749
0.497752 0.464117 0.060725
0.531304 0.464258 0.060705
0.564348 0.464407 0.060692
0.596876 0.464565 0.060683
0.628883 0.464732 0.060680
0.660362 0.464912 0.060683
0.691309 0.465105 0.060692
0.721719 0.465314 0.060708
0.751588 0.465545 0.060733
0.780916 0.465817 0.060774
0.809687 0.466106 0.060825
0.837895 0.466388 0.060876
0.865540 0.466663 0.060928
0.892623 0.466930 0.060981
0.919146 0.467191 0.061035
0.945110 0.467444 0.061089
0.970515 0.467691 0.061143
0.057142 0.495707 0.061306
0.066592 0.495793 0.061239
0.083307 0.495888 0.061175
0.107458 0.495990 0.061115
0.134075 0.496101 0.061058
0.161263 0.496222 0.061004
0.189023 0.496352 0.060954
0.217357 0.496493 0.060908
0.246267 0.496645 0.060866
0.275753 0.496808 0.060827
0.305821 0.496983 0.060793
0.336569 0.497120 0.060763
0.367915 0.497253 0.060737
0.399837 0.497390 0.060716
0.432328 0.497535 0.060700
0.465379 0.497690 0.060688
0.498986 0.497859 0.060681
0.532610 0.498040 0.060681
0.565712 0.498234 0.060687
0.598287 0.498442 0.060701
0.630331 0.498670 0.060724
0.661845 0.498931 0.060762
0.692819 0.499226 0.060815
0.723224 0.499512 0.060870
0.753061 0.499792 0.060926
0.782332 0.500064 0.060983
0.811036 0.500328 0.061041
0.839177 0.500586 0.061100
0.866754 0.500837 0.061160
0.893769 0.501081 0.061220
0.920223 0.501319 0.061280
0.946119 0.501550 0.061341
0.971456 0.501775 0.061402
0.056922 0.529202 0.061043
0.066182 0.529334 0.060995
0.082773 0.529475 0.060949
0.106911 0.529626 0.060907
0.133655 0.529786 0.060868
0.160969 0.529956 0.060831
0.188856 0.530137 0.060799
0.217418 0.530286 0.060770
0.246602 0.530419 0.060745
0.276369 0.530552 0.060723
0.306708 0.530690 0.060706
0.337614 0.530835 0.060693
0.369082 0.530989 0.060684
0.401108 0.531154 0.060681
0.433689 0.531333 0.060683
0.466820 0.531528 0.060692
0.500499 0.531745 0.060710
0.534191 0.531987 0.060740
0.567373 0.532274 0.060791
0.599995 0.532565 0.060849
0.632045 0.532847 0.060908
0.663523 0.533122 0.060969
0.694430 0.533389 0.061031
0.724767 0.533649 0.061094
0.754535 0.533902 0.061157
0.783736 0.534148 0.061222
0.812370 0.534387 0.061288
0.840440 0.534619 0.061354
0.867946 0.534846 0.061421
0.894890 0.535066 0.061488
0.921274 0.535280 0.061555
0.947099 0.535488 0.061623
0.972366 0.535690 0.061690
0.056771 0.562445 0.060860
0.065912 0.562620 0.060827
0.082448 0.562806 0.060797
0.106740 0.562953 0.060770
0.133776 0.563085 0.060747
0.161397 0.563215 0.060727
0.189591 0.563348 0.060710
0.218355 0.563485 0.060696
0.247684 0.563629 0.060687
0.277576 0.563780 0.060682
0.308027 0.563940 0.060681
0.339035 0.564113 0.060686
0.370598 0.564299 0.060698
0.402717 0.564506 0.060719
0.435397 0.564741 0.060754
0.468646 0.565021 0.060810
0.502394 0.565302 0.060871
0.536101 0.565579 0.060934
0.569232 0.565848 0.060999
0.601788 0.566109 0.061065
0.633769 0.566362 0.061133
0.665178 0.566609 0.061202
0.696015 0.566848 0.061272
0.726281 0.567080 0.061342
0.755977 0.567306 0.061414
0.785106 0.567526 0.061486
0.813668 0.567739 0.061559
0.841665 0.567946 0.061632
0.869099 0.568147 0.061706
0.895971 0.568343 0.061780
0.922283 0.568533 0.061854
0.948037 0.568717 0.061928
0.973234 0.568896 0.062002
0.056770 0.595257 0.060744
0.066072 0.595383 0.060726
0.082958 0.595510 0.060710
0.107598 0.595640 0.060697
0.134793 0.595774 0.060688
0.162552 0.595914 0.060682
0.190873 0.596061 0.060681
0.219754 0.596216 0.060684
0.249195 0.596381 0.060692
0.279196 0.596560 0.060708
0.309761 0.596756 0.060733
0.340912 0.596987 0.060776
0.372607 0.597236 0.060832
0.404803 0.597486 0.060890
0.437499 0.597735 0.060952
0.470690 0.597985 0.061018
0.504374 0.598235 0.061087
0.538014 0.598481 0.061159
0.571076 0.598720 0.061232
0.603562 0.598951 0.061307
0.635472 0.599175 0.061382
0.666809 0.599393 0.061459
0.697573 0.599604 0.061537
0.727765 0.599809 0.061615
0.757388 0.600008 0.061694
0.786443 0.600200 0.061773
0.814932 0.600387 0.061853
0.842856 0.600569 0.061934
0.870216 0.600745 0.062014
0.897015 0.600916 0.062095
0.923255 0.601081 0.062175
0.948936 0.601242 0.062255
0.974062 0.601397 0.062336
0.056998 0.627427 0.060688
0.066650 0.627556 0.060683
0.083967 0.627691 0.060681
0.108990 0.627831 0.060683
0.136308 0.627980 0.060690
0.164189 0.628137 0.060703
0.192635 0.628308 0.060723
0.221659 0.628497 0.060755
0.251277 0.628716 0.060805
0.281407 0.628935 0.060859
0.312043 0.629154 0.060915
0.343184 0.629374 0.060975
0.374826 0.629593 0.061039
0.406966 0.629812 0.061105
0.439600 0.630032 0.061175
0.472727 0.630251 0.061249
0.506343 0.630469 0.061327
0.539912 0.630684 0.061407
0.572902 0.630892 0.061489
0.605315 0.631094 0.061571
0.637152 0.631289 0.061655
0.668414 0.631478 0.061739
0.699103 0.631660 0.061824
0.729221 0.631837 0.061910
0.758769 0.632009 0.061996
0.787749 0.632175 0.062082
0.816163 0.632335 0.062169
0.844012 0.632491 0.062256
0.871298 0.632642 0.062343
0.898024 0.632787 0.062430
0.924190 0.632928 0.062517
0.949799 0.633065 0.062603
0.974853 0.633197 0.062689
0.057374 0.659090 0.060690
0.067530 0.659231 0.060702
0.085439 0.659380 0.060720
0.110946 0.659543 0.060747
0.138459 0.659730 0.060791
0.166503 0.659921 0.060840
0.195060 0.660112 0.060892
0.224128 0.660303 0.060947
0.253705 0.660493 0.061005
0.283788 0.660684 0.061066
0.314374 0.660874 0.061130
0.345460 0.661064 0.061198
0.377044 0.661254 0.061269
0.409123 0.661443 0.061343
0.441693 0.661632 0.061421
0.474752 0.661820 0.061503
0.508296 0.662008 0.061589
0.541791 0.662192 0.061677
0.574707 0.662370 0.061766
0.607044 0.662541 0.061857
0.638806 0.662707 0.061948
0.669992 0.662867 0.062040
0.700605 0.663021 0.062132
0.730647 0.663170 0.062225
0.760119 0.663314 0.062318
0.789023 0.663453 0.062411
0.817361 0.663587 0.062505
0.845135 0.663716 0.062598
0.872347 0.663841 0.062691
0.898999 0.663962 0.062784
0.925091 0.664078 0.062877
0.950628 0.664191 0.062970
0.975609 0.664299 0.063062
0.057971 0.690270 0.060788
0.068863 0.690433 0.060833
0.087587 0.690597 0.060881
0.113579 0.690761 0.060932
0.141071 0.690925 0.060985
0.169076 0.691089 0.061041
0.197591 0.691252 0.061100
0.226614 0.691415 0.061162
0.256142 0.691578 0.061227
0.286173 0.691740 0.061295
0.316704 0.691902 0.061366
0.347732 0.692063 0.061441
0.379255 0.692223 0.061520
0.411269 0.692383 0.061602
0.443771 0.692541 0.061688
0.476759 0.692699 0.061777
0.510229 0.692855 0.061871
0.543649 0.693008 0.061967
0.576488 0.693155 0.062064
0.608749 0.693297 0.062162
0.640433 0.693433 0.062260
0.671542 0.693564 0.062359
0.702078 0.693690 0.062459
0.732043 0.693811 0.062558
0.761438 0.693927 0.062658
0.790266 0.694039 0.062758
0.818528 0.694146 0.062858
0.846227 0.694250 0.062958
0.873363 0.694349 0.063057
0.899941 0.694444 0.063156
0.925960 0.694536 0.063255
0.951423 0.694624 0.063353
0.976333 0.694708 0.063451
0.058782 0.720878 0.060978
0.070446 0.721017 0.061030
0.089936 0.721155 0.061084
0.116248 0.721293 0.061141
0.143699 0.721430 0.061200
0.171660 0.721567 0.061263
0.200129 0.721704 0.061329
0.229102 0.721840 0.061397
0.258578 0.721975 0.061469
0.288554 0.722109 0.061544
0.319026 0.722242 0.061623
0.349993 0.722374 0.061705
0.381451 0.722505 0.061791
0.413398 0.722635 0.061880
0.445831 0.722764 0.061974
0.478746 0.722891 0.062071
0.512140 0.723016 0.062172
0.545482 0.723138 0.062276
0.578244 0.723254 0.062380
0.610427 0.723366 0.062485
0.642033 0.723472 0.062591
0.673064 0.723574 0.062697
0.703522 0.723671 0.062803
0.733409 0.723764 0.062909
0.762728 0.723853 0.063016
0.791478 0.723938 0.063122
0.819664 0.724019 0.063228
0.847287 0.724096 0.063334
0.874349 0.724169 0.063439
0.900851 0.724240 0.063544
0.926797 0.724306 0.063649
0.952187 0.724370 0.063752
0.977025 0.724431 0.063855
0.059686 0.750801 0.061189
0.072123 0.750914 0.061247
0.092376 0.751027 0.061307
0.118925 0.751140 0.061370
0.146332 0.751251 0.061436
0.174246 0.751362 0.061505
0.202664 0.751472 0.061577
0.231585 0.751581 0.061652
0.261005 0.751688 0.061731
0.290923 0.751795 0.061813
0.321335 0.751900 0.061898
0.352238 0.752003 0.061987
0.383630 0.752105 0.062080
0.415508 0.752205 0.062177
0.447869 0.752304 0.062277
0.480710 0.752400 0.062382
0.514027 0.752495 0.062491
0.547291 0.752586 0.062602
0.579973 0.752672 0.062713
0.612078 0.752753 0.062825
0.643605 0.752830 0.062938
0.674558 0.752903 0.063051
0.704937 0.752972 0.063163
0.734747 0.753036 0.063276
0.763987 0.753098 0.063389
0.792661 0.753155 0.063501
0.820770 0.753209 0.063613
0.848317 0.753260 0.063725
0.875304 0.753308 0.063836
0.901732 0.753353 0.063947
0.927604 0.753396 0.064056
0.952921 0.753435 0.064165
0.977687 0.753472 0.064273
0.060679 0.780043 0.061419
0.073886 0.780132 0.061482
0.094900 0.780220 0.061549
0.121601 0.780307 0.061618
0.148960 0.780393 0.061690
0.176824 0.780478 0.061765
0.205190 0.780562 0.061843
0.234056 0.780644 0.061925
0.263418 0.780724 0.062010
0.293276 0.780803 0.062099
0.323625 0.780880 0.062191
0.354463 0.780955 0.062287
0.385788 0.781028 0.062386
0.417595 0.781098 0.062490
0.449883 0.781167 0.062597
0.482649 0.781233 0.062709
0.515888 0.781297 0.062825
0.549072 0.781357 0.062943
0.581675 0.781412 0.063061
0.613700 0.781464 0.063180
0.645148 0.781511 0.063300
0.676022 0.781555 0.063419
0.706323 0.781596 0.063538
0.736054 0.781632 0.063657
0.765217 0.781666 0.063776
0.793814 0.781697 0.063894
0.821847 0.781724 0.064012
0.849318 0.781749 0.064129
0.876229 0.781772 0.064246
0.902583 0.781791 0.064362
0.928381 0.781809 0.064477
0.953627 0.781824 0.064591
0.978321 0.781837 0.064704
0.061758 0.808610 0.061667
0.075730 0.808675 0.061736
0.097498 0.808739 0.061807
0.124268 0.808801 0.061882
0.151577 0.808862 0.061960
0.179389 0.808921 0.062042
0.207700 0.808979 0.062126
0.236509 0.809034 0.062214
0.265812 0.809088 0.062305
0.295608 0.809139 0.062400
0.325893 0.809188 0.062499
0.356665 0.809234 0.062601
0.387921 0.809278 0.062708
0.419657 0.809320 0.062818
0.451872 0.809359 0.062932
0.484561 0.809394 0.063051
0.517721 0.809427 0.063173
0.550825 0.809457 0.063298
0.583349 0.809482 0.063424
0.615294 0.809504 0.063549
0.646663 0.809522 0.063675
0.677457 0.809537 0.063800
0.707680 0.809549 0.063926
0.737333 0.809558 0.064051
