apps/editor/assets/luts/scinetone_s11.cube
# Carbon & Bronze — generado por scripts/make_lut.py
# fuerza=0.55 contraste=0.17 desaturacion=0.04
TITLE "%s" % args.preset
LUT_3D_SIZE 9
DOMAIN_MIN 0.0 0.0 0.0
DOMAIN_MAX 1.0 1.0 1.0
0.000000 0.000000 0.000000
0.102134 0.000000 0.000000
0.216015 0.000000 0.000000
0.333777 0.000000 0.000000
0.462035 0.000000 0.000000
0.592070 0.000000 0.000000
0.714683 0.000000 0.000000
0.839054 0.000000 0.000000
0.947414 0.000000 0.000000
0.000000 0.106563 0.000000
0.105157 0.107284 0.000000
0.220909 0.108089 0.000000
0.340926 0.108983 0.000000
0.471411 0.109971 0.000000
0.603465 0.110987 0.000000
0.727753 0.111959 0.000000
0.855236 0.112880 0.000000
0.961031 0.113745 0.000000
0.000000 0.224617 0.000000
0.108610 0.225893 0.000000
0.226128 0.227273 0.000000
0.348293 0.228755 0.000000
0.480848 0.230335 0.000000
0.614704 0.231900 0.000000
0.740407 0.233342 0.000000
0.870172 0.234661 0.000000
0.973219 0.235858 0.000000
0.000000 0.350515 0.000000
0.112504 0.352290 0.000000
0.231579 0.354175 0.000000
0.355652 0.356156 0.000000
0.489942 0.358213 0.000000
0.625165 0.360186 0.000000
0.751762 0.361958 0.000000
0.882742 0.364249 0.000000
0.982593 0.366486 0.000000
0.000000 0.489739 0.000000
0.116837 0.491754 0.000000
0.237091 0.493832 0.000000
0.363015 0.496193 0.000000
0.499224 0.499045 0.000000
0.635149 0.501743 0.000000
0.760652 0.503883 0.000000
0.889751 0.505882 0.001881
0.986133 0.507762 0.005054
0.000000 0.631603 0.000000
0.125348 0.633776 0.000000
0.246770 0.635709 0.000000
0.373217 0.637500 0.000199
0.508244 0.639464 0.004161
0.642412 0.641462 0.008225
0.766534 0.643348 0.012085
0.894394 0.645113 0.015713
0.988635 0.646751 0.019092
0.011647 0.761893 0.002353
0.138207 0.763174 0.005539
0.257693 0.764574 0.009068
0.383091 0.766095 0.012944
0.516810 0.767736 0.017168
0.649522 0.769383 0.021449
0.772174 0.770921 0.025477
0.898658 0.772348 0.029240
0.990823 0.773663 0.032726
0.027679 0.893446 0.014278
0.151212 0.894469 0.017645
0.268689 0.895572 0.021342
0.392853 0.896754 0.025372
0.525140 0.898013 0.029737
0.656324 0.899260 0.034135
0.777475 0.900412 0.038257
0.902536 0.901469 0.042093
0.992735 0.902433 0.045638
0.043245 0.989585 0.025753
0.163703 0.990118 0.029220
0.279330 0.990687 0.033012
0.402214 0.991290 0.037130
0.533052 0.991923 0.041575
0.662714 0.992541 0.046040
0.782981 0.993105 0.050213
0.906034 0.993616 0.054089
0.994400 0.994077 0.057664
0.000000 0.000000 0.111055
0.102421 0.000000 0.111185
0.216503 0.000000 0.111364
0.334505 0.000000 0.111604
0.463001 0.000000 0.111913
0.593255 0.000000 0.112278
0.716052 0.000000 0.112666
0.840782 0.000000 0.113069
0.948884 0.000000 0.113476
0.000000 0.106796 0.111627
0.105463 0.107525 0.111872
0.221393 0.108338 0.112178
0.341623 0.109240 0.112553
0.472318 0.110237 0.113009
0.604558 0.111261 0.113521
0.728997 0.112240 0.114049
0.856741 0.113168 0.114582
0.962279 0.114039 0.115111
0.000000 0.225045 0.112690
0.108933 0.226320 0.113062
0.226601 0.227699 0.113506
0.348949 0.229179 0.114032
0.481677 0.230756 0.114652
0.615677 0.232317 0.115330
0.741486 0.233754 0.116016
0.871406 0.235068 0.116700
0.974201 0.236259 0.117372
0.000000 0.351118 0.114362
0.112843 0.352881 0.114875
0.232034 0.354753 0.115474
0.356249 0.356717 0.116172
0.490659 0.358752 0.116982
0.625964 0.360702 0.117859
0.752664 0.362636 0.118988
0.883628 0.365005 0.120891
0.983141 0.367247 0.122901
0.000000 0.490432 0.116795
0.117188 0.492415 0.117473
0.237511 0.494455 0.118260
0.363825 0.496964 0.119897
0.500046 0.499798 0.122315
0.635768 0.502387 0.125073
0.761114 0.504503 0.127890
0.890126 0.506518 0.130575
0.986341 0.508410 0.133100
0.000000 0.632366 0.121745
0.126380 0.634452 0.123846
0.247658 0.636224 0.126375
0.374032 0.638027 0.129236
0.508960 0.640002 0.132392
0.643013 0.642008 0.135617
0.767016 0.643900 0.138670
0.894765 0.645671 0.141535
0.988830 0.647313 0.144197
0.013085 0.762328 0.130954
0.139383 0.763612 0.133487
0.258686 0.765016 0.136286
0.383978 0.766540 0.139351
0.517572 0.768183 0.142684
0.650148 0.769832 0.146054
0.772667 0.771371 0.149219
0.899024 0.772799 0.152171
0.991007 0.774114 0.154902
0.029223 0.893797 0.140406
0.152457 0.894817 0.143061
0.269745 0.895919 0.145972
0.393785 0.897099 0.149138
0.525932 0.898355 0.152563
0.656967 0.899600 0.156008
0.777973 0.900748 0.159231
0.902896 0.901803 0.162227
0.992910 0.902765 0.164992
0.044850 0.989770 0.149439
0.164986 0.990301 0.152160
0.280430 0.990867 0.155131
0.403179 0.991466 0.158352
0.533865 0.992095 0.161825
0.663368 0.992710 0.165308
0.783605 0.993271 0.168559
0.906387 0.993779 0.171576
0.994566 0.994237 0.174354
0.000000 0.000000 0.219340
0.102735 0.000000 0.220422
0.217033 0.000000 0.221604
0.335292 0.000000 0.222886
0.464044 0.000000 0.224270
0.594532 0.000000 0.225659
0.717526 0.000000 0.226956
0.842635 0.000000 0.228160
0.950457 0.000000 0.229269
0.000000 0.107054 0.223001
0.105797 0.107790 0.224100
0.221917 0.108611 0.225298
0.342377 0.109522 0.226594
0.473296 0.110528 0.227989
0.605734 0.111562 0.229385
0.730334 0.112549 0.230685
0.858349 0.113484 0.231888
0.963609 0.114362 0.232993
0.000000 0.225510 0.227032
0.109286 0.226784 0.228140
0.227114 0.228161 0.229345
0.349658 0.229639 0.230645
0.482568 0.231212 0.232039
0.616719 0.232768 0.233428
0.742639 0.234200 0.234716
0.872715 0.235508 0.235901
0.975238 0.236693 0.236984
0.000000 0.351770 0.231405
0.113213 0.353519 0.232511
0.232525 0.355375 0.233708
0.356890 0.357319 0.234994
0.491425 0.359332 0.236365
0.626811 0.361254 0.237720
0.753634 0.363421 0.239383
0.884541 0.365832 0.241348
0.983671 0.368068 0.243250
0.000000 0.491174 0.236058
0.117570 0.493121 0.237139
0.238046 0.495160 0.238352
0.364725 0.497803 0.240351
0.500923 0.500600 0.242710
0.636375 0.503046 0.245138
0.761619 0.505183 0.247453
0.890533 0.507214 0.249659
0.986565 0.509119 0.251732
0.000000 0.633168 0.242173
0.127523 0.635128 0.244097
0.248636 0.636788 0.246209
0.374927 0.638604 0.248560
0.509743 0.640588 0.251152
0.643669 0.642603 0.253803
0.767541 0.644502 0.256318
0.895168 0.646278 0.258682
0.989041 0.647925 0.260884
0.014662 0.762803 0.249972
0.140670 0.764090 0.252053
0.259773 0.765497 0.254355
0.384947 0.767023 0.256880
0.518404 0.768669 0.259633
0.650831 0.770319 0.262425
0.773203 0.771860 0.265055
0.899422 0.773289 0.267515
0.991207 0.774605 0.269797
0.030910 0.894177 0.257753
0.153814 0.895196 0.259947
0.270898 0.896295 0.262358
0.394803 0.897472 0.264989
0.526795 0.898726 0.267844
0.657667 0.899968 0.270726
0.778515 0.901113 0.273433
0.903286 0.902165 0.275958
0.993099 0.903125 0.278296
0.046599 0.989970 0.265242
0.166384 0.990498 0.267510
0.281629 0.991061 0.269994
0.404230 0.991656 0.272697
0.534750 0.992282 0.275621
0.664080 0.992893 0.278567
0.784282 0.993450 0.281329
0.906770 0.993955 0.283901
0.994746 0.994411 0.286279
0.000000 0.000000 0.330436
0.103077 0.000000 0.332544
0.217605 0.000000 0.334810
0.336139 0.000000 0.337227
0.465164 0.000000 0.339785
0.595900 0.000000 0.342302
0.719102 0.000000 0.344606
0.844607 0.000000 0.346703
0.952126 0.000000 0.348599
0.000000 0.107335 0.337442
0.106160 0.108080 0.339474
0.222483 0.108910 0.341652
0.343187 0.109830 0.343967
0.474344 0.110846 0.346407
0.606991 0.111889 0.348795
0.731759 0.112885 0.350969
0.860053 0.113828 0.352936
0.965013 0.114713 0.354702
0.000000 0.226012 0.344739
0.109669 0.227284 0.346668
0.227667 0.228659 0.348727
0.350416 0.230134 0.350902
0.483518 0.231703 0.353179
0.617827 0.233254 0.355388
0.743860 0.234680 0.357377
0.874091 0.235981 0.359155
0.976319 0.237158 0.360728
0.000000 0.352467 0.352151
0.113614 0.354202 0.353936
0.233054 0.356040 0.355825
0.357573 0.357963 0.357799
0.492236 0.359949 0.359834
0.627700 0.361839 0.361768
0.754654 0.364294 0.364026
0.885461 0.366727 0.366191
0.984140 0.368937 0.368110
0.000000 0.491960 0.359386
0.117984 0.493867 0.360950
0.238891 0.496043 0.362786
0.365711 0.498704 0.365116
0.501839 0.501436 0.367586
0.637036 0.503766 0.369825
0.762166 0.505924 0.371922
0.890972 0.507971 0.373909
0.986806 0.509888 0.375769
0.000327 0.633995 0.367048
0.128777 0.635743 0.368881
0.249707 0.637402 0.370798
0.375902 0.639229 0.372921
0.510595 0.641225 0.375251
0.644381 0.643249 0.377623
0.768110 0.645155 0.379867
0.895603 0.646937 0.381970
0.989267 0.648588 0.383925
0.016380 0.763317 0.374193
0.142069 0.764608 0.376060
0.260955 0.766018 0.378118
0.386000 0.767547 0.380370
0.519305 0.769194 0.382818
0.651571 0.770847 0.385293
0.773782 0.772388 0.387621
0.899850 0.773818 0.389793
0.991421 0.775135 0.391806
0.032740 0.894587 0.381148
0.155285 0.895604 0.383099
0.272149 0.896700 0.385237
0.395906 0.897875 0.387566
0.527730 0.899125 0.390087
0.658424 0.900364 0.392628
0.779101 0.901507 0.395009
0.903707 0.902556 0.397228
0.993302 0.903513 0.399279
0.048494 0.990185 0.387791
0.167896 0.990710 0.389795
0.282930 0.991269 0.391985
0.405369 0.991861 0.394365
0.535708 0.992482 0.396936
0.664850 0.993090 0.399521
0.785013 0.993643 0.401940
0.907183 0.994144 0.404190
0.994940 0.994597 0.406268
0.000000 0.000000 0.450633
0.103448 0.000000 0.453819
0.218219 0.000000 0.457224
0.337044 0.000000 0.460830
0.466357 0.000000 0.464617
0.597356 0.000000 0.468311
0.720776 0.000000 0.471662
0.846690 0.000000 0.474686
0.953885 0.000000 0.477397
0.000000 0.107641 0.461148
0.106554 0.108395 0.464157
0.223089 0.109234 0.467360
0.344052 0.110165 0.470736
0.475458 0.111191 0.474261
0.608324 0.112244 0.477677
0.733266 0.113249 0.480751
0.861846 0.114201 0.483500
0.966485 0.115093 0.485940
0.000000 0.226551 0.471855
0.110084 0.227821 0.474636
0.228258 0.229194 0.477579
0.351224 0.230665 0.480657
0.484525 0.232229 0.483838
0.618997 0.233774 0.486880
0.745142 0.235193 0.489576
0.875524 0.236485 0.491940
0.977436 0.237653 0.493991
0.000000 0.353211 0.482407
0.114046 0.354929 0.484886
0.233617 0.356746 0.487476
0.358297 0.358645 0.490141
0.493088 0.360601 0.492832
0.628765 0.362680 0.495438
0.755711 0.365247 0.498035
0.886361 0.367683 0.500284
0.984448 0.369824 0.502015
0.000000 0.492787 0.492245
0.118430 0.494649 0.494276
0.239879 0.497013 0.496656
0.366777 0.499658 0.499193
0.502761 0.502276 0.501589
0.637754 0.504548 0.503530
0.762757 0.506727 0.505379
0.891443 0.508789 0.507121
0.987063 0.510720 0.508744
0.001905 0.634821 0.501110
0.130146 0.636393 0.502693
0.250873 0.638066 0.504391
0.376960 0.639905 0.506257
0.511517 0.641912 0.508294
0.645149 0.643945 0.510359
0.768722 0.645858 0.512304
0.896070 0.647646 0.514121
0.989509 0.649302 0.515805
0.018242 0.763870 0.507372
0.143582 0.765164 0.509002
0.262234 0.766578 0.510791
0.387138 0.768109 0.512741
0.520278 0.769759 0.514854
0.652367 0.771414 0.516984
0.774405 0.772957 0.518981
0.900309 0.774387 0.520841
0.991650 0.775704 0.522559
0.034715 0.895027 0.513416
0.156872 0.896041 0.515099
0.273499 0.897135 0.516939
0.397095 0.898306 0.518937
0.528737 0.899553 0.521095
0.659240 0.900789 0.523264
0.779730 0.901928 0.525292
0.904158 0.902974 0.527178
0.993519 0.903928 0.528918
0.050534 0.990415 0.519134
0.169525 0.990936 0.520849
0.284331 0.991491 0.522720
0.406597 0.992079 0.524748
0.536740 0.992696 0.526934
0.665679 0.993299 0.529127
0.785797 0.993848 0.531175
0.907625 0.994346 0.533076
0.995146 0.994795 0.534829
0.000000 0.000000 0.571763
0.103823 0.000000 0.576003
0.218833 0.000000 0.580519
0.337945 0.000000 0.585283
0.467542 0.000000 0.590264
0.598797 0.000000 0.595100
0.722430 0.000000 0.599465
0.848738 0.000000 0.603382
0.955608 0.000000 0.606874
0.000000 0.107951 0.585703
0.106950 0.108714 0.589661
0.223695 0.109563 0.593858
0.344911 0.110503 0.598261
0.476561 0.111540 0.602833
0.609641 0.112603 0.607234
0.734751 0.113618 0.611168
0.863601 0.114577 0.614660
0.967919 0.115477 0.617736
0.000000 0.227089 0.599715
0.110500 0.228357 0.603318
0.228848 0.229727 0.607109
0.352024 0.231194 0.611048
0.485519 0.232753 0.615088
0.620145 0.234292 0.618913
0.746393 0.235702 0.622263
0.876909 0.236986 0.625162
0.978500 0.238229 0.627658
0.000000 0.353947 0.613275
0.114481 0.355648 0.616410
0.234178 0.357445 0.619657
0.359010 0.359318 0.622959
0.493918 0.361242 0.626242
0.629850 0.363595 0.629394
0.756719 0.366208 0.632159
0.887145 0.368626 0.634337
0.984721 0.370714 0.635738
0.000000 0.493595 0.625532
0.119167 0.495524 0.628028
0.240916 0.497986 0.630719
0.367841 0.500589 0.633316
0.503603 0.503039 0.635368
0.638478 0.505337 0.637050
0.763351 0.507536 0.638640
0.891914 0.509614 0.640127
0.987318 0.511556 0.641507
0.003554 0.635527 0.634999
0.131537 0.637049 0.636329
0.252054 0.638735 0.637793
0.378029 0.640586 0.639393
0.512445 0.642602 0.641127
0.645920 0.644644 0.642876
0.769335 0.646564 0.644514
0.896536 0.648357 0.646038
0.989750 0.650018 0.647446
0.020120 0.764425 0.640345
0.145106 0.765723 0.641730
0.263522 0.767139 0.643242
0.388282 0.768673 0.644884
0.521256 0.770325 0.646656
0.653167 0.771981 0.648434
0.775029 0.773525 0.650094
0.900767 0.774957 0.651636
0.991877 0.776274 0.653056
0.036700 0.895465 0.645454
0.158465 0.896477 0.646863
0.274857 0.897568 0.648399
0.398290 0.898737 0.650062
0.529748 0.899981 0.651851
0.660057 0.901212 0.653642
0.780450 0.902348 0.655312
0.904607 0.903391 0.656860
0.993735 0.904342 0.658285
0.052582 0.990643 0.650228
0.171157 0.991161 0.651651
0.285739 0.991712 0.653198
0.407828 0.992296 0.654869
0.537774 0.992909 0.656665
0.666509 0.993508 0.658462
0.786581 0.994053 0.660134
0.908066 0.994547 0.661683
0.995351 0.994993 0.663107
0.000000 0.000000 0.685406
0.104174 0.000000 0.690605
0.219405 0.000000 0.696130
0.338780 0.000000 0.701945
0.468637 0.000000 0.708008
0.600127 0.000000 0.713874
0.723954 0.000000 0.719150
0.850613 0.000000 0.723869
0.957181 0.000000 0.728059
0.000000 0.108244 0.702457
0.107322 0.109015 0.707275
0.224258 0.109872 0.712369
0.345705 0.110822 0.717697
0.477578 0.111868 0.723208
0.610851 0.112941 0.728490
0.736112 0.113964 0.733187
0.865200 0.114931 0.737334
0.969220 0.115838 0.740964
0.000000 0.227590 0.719452
0.110891 0.228856 0.723791
0.229395 0.230223 0.728340
0.352762 0.231686 0.733044
0.486431 0.233239 0.737840
0.621193 0.234771 0.742347
0.747529 0.236175 0.746257
0.878155 0.237450 0.749603
0.979429 0.238991 0.752471
0.000000 0.354627 0.735692
0.114887 0.356311 0.739402
0.234696 0.358087 0.743219
0.359663 0.359936 0.747065
0.494671 0.361828 0.750837
0.630850 0.364473 0.754325
0.757605 0.367103 0.757116
0.887692 0.369468 0.758994
0.984974 0.371554 0.760122
0.000000 0.494331 0.750027
0.120109 0.496420 0.752874
0.241913 0.498886 0.755690
0.368823 0.501427 0.758194
0.504397 0.503759 0.759808
0.639159 0.506080 0.761237
0.763907 0.508295 0.762575
0.892353 0.510387 0.763818
0.987555 0.512340 0.764963
0.005135 0.636130 0.759493
0.132850 0.637665 0.760627
0.253167 0.639362 0.761866
0.379033 0.641223 0.763207
0.513315 0.643248 0.764651
0.646642 0.645297 0.766097
0.769908 0.647224 0.767444
0.896969 0.649022 0.768690
0.989972 0.650687 0.769837
0.021884 0.764944 0.764004
0.146535 0.766244 0.765153
0.264730 0.767663 0.766402
0.389354 0.769199 0.767751
0.522170 0.770853 0.769197
0.653913 0.772510 0.770642
0.775612 0.774055 0.771985
0.901193 0.775487 0.773225
0.992088 0.776805 0.774365
0.038558 0.895873 0.768220
0.159954 0.896882 0.769370
0.276128 0.897971 0.770618
0.399408 0.899137 0.771963
0.530692 0.900378 0.773403
0.660820 0.901606 0.774839
0.781183 0.902739 0.776171
0.905025 0.903778 0.777401
0.993935 0.904727 0.778530
0.054495 0.990855 0.772101
0.172681 0.991369 0.773247
0.287056 0.991917 0.774488
0.408979 0.992497 0.775824
0.538741 0.993106 0.777253
0.667283 0.993700 0.778676
0.787311 0.994242 0.779995
0.908476 0.994733 0.781514
0.995541 0.995175 0.782903
0.000000 0.000000 0.794071
0.104503 0.000000 0.801457
0.219933 0.000000 0.809202
0.339550 0.000000 0.817238
0.469644 0.000000 0.825488
0.601347 0.000000 0.833343
0.725349 0.000000 0.840301
0.852322 0.000000 0.846434
0.958610 0.000000 0.851809
0.000000 0.108518 0.817940
0.107668 0.109297 0.824497
0.224778 0.110162 0.831340
0.346437 0.111120 0.838395
0.478511 0.112175 0.845581
0.611958 0.113256 0.852357
0.737353 0.114287 0.858290
0.866650 0.115261 0.863450
0.970394 0.116175 0.867901
0.000000 0.228053 0.840695
0.111254 0.229317 0.846334
0.229899 0.230681 0.852166
0.353440 0.232140 0.858111
0.487264 0.233689 0.864073
0.622146 0.235214 0.869580
0.748555 0.236609 0.874272
0.879268 0.237876 0.878210
0.980245 0.239752 0.881459
0.000000 0.355251 0.861415
0.115265 0.356919 0.865993
0.235172 0.358676 0.870634
0.360259 0.360500 0.875230
0.495519 0.362545 0.879645
0.631759 0.365297 0.883443
0.758370 0.367926 0.886247
0.888099 0.370231 0.887723
0.985206 0.372342 0.888699
0.000000 0.495016 0.878703
0.121056 0.497260 0.881896
0.242855 0.499707 0.884853
0.369710 0.502159 0.887181
0.505141 0.504433 0.888429
0.639793 0.506773 0.889653
0.764423 0.509004 0.890783
0.892759 0.511107 0.891821
0.987773 0.513070 0.892769
0.006622 0.636694 0.888159
0.134080 0.638239 0.889135
0.254208 0.639946 0.890188
0.379970 0.641816 0.891315
0.514126 0.643849 0.892514
0.647314 0.645905 0.893701
0.770440 0.647837 0.894796
0.897370 0.649639 0.895799
0.990178 0.651308 0.896715
0.023529 0.765425 0.891981
0.147866 0.766728 0.892931
0.265857 0.768149 0.893954
0.390353 0.769687 0.895048
0.523021 0.771343 0.896210
0.654607 0.773001 0.897358
0.776152 0.774547 0.898416
0.901587 0.775979 0.899386
0.992282 0.777298 0.900269
0.040285 0.896250 0.895429
0.161339 0.897257 0.896352
0.277311 0.898344 0.897344
0.400447 0.899507 0.898404
0.531570 0.900745 0.899530
0.661528 0.901970 0.900641
0.781862 0.903100 0.901663
0.905412 0.904137 0.902599
0.994119 0.905083 0.903452
0.056271 0.991049 0.898518
0.174096 0.991560 0.899413
0.288279 0.992105 0.900376
0.410049 0.992682 0.901404
0.539638 0.993287 0.902494
0.668001 0.993878 0.903569
0.787987 0.994416 0.904558
0.908855 0.994904 0.905462
0.995717 0.995344 0.906285
0.000000 0.000000 0.903248
0.104807 0.000000 0.910053
0.220420 0.000000 0.917149
0.340255 0.000000 0.924463
0.470565 0.000000 0.931920
0.602460 0.000000 0.938968
0.726621 0.000000 0.945165
0.853872 0.000000 0.950589
0.959903 0.000000 0.955310
0.000000 0.108774 0.925099
0.107989 0.109559 0.931027
0.225256 0.110432 0.937175
0.347106 0.111397 0.943471
0.479363 0.112460 0.949836
0.612966 0.113549 0.955789
0.738480 0.114587 0.960958
0.867958 0.115567 0.965416
0.971449 0.116487 0.969230
0.000000 0.228479 0.945515
0.111590 0.229741 0.950500
0.230362 0.231102 0.955622
0.354059 0.232558 0.960803
0.488020 0.234101 0.965952
0.623006 0.235619 0.970660
0.749477 0.237007 0.974623
0.880274 0.238423 0.977891
0.980955 0.240480 0.980461
0.000000 0.355820 0.963663
0.115613 0.357473 0.967599
0.235608 0.359211 0.971554
0.360799 0.361012 0.975426
0.496345 0.363264 0.979039
0.632576 0.366060 0.981974
0.759010 0.368673 0.983944
0.888473 0.370941 0.984726
0.985419 0.373073 0.985334
0.000000 0.495761 0.978289
0.121972 0.498033 0.980800
0.243734 0.500449 0.983005
0.370489 0.502769 0.984395
0.505833 0.505059 0.985169
0.640381 0.507416 0.985923
0.764901 0.509659 0.986610
0.893132 0.511773 0.987233
0.987973 0.513745 0.987796
0.008009 0.637217 0.985001
0.135224 0.638771 0.985607
0.255175 0.640487 0.986251
0.380839 0.642364 0.986933
0.514877 0.644404 0.987648
0.647934 0.646465 0.988348
0.770931 0.648402 0.988986
0.897738 0.650208 0.989565
0.990366 0.651880 0.990088
0.025052 0.765870 0.987333
0.149096 0.767174 0.987897
0.266899 0.768597 0.988499
0.391276 0.770137 0.989135
0.523806 0.771794 0.989804
0.655247 0.773453 0.990457
0.776649 0.775000 0.991053
0.901949 0.776433 0.991593
0.992460 0.777751 0.992081
0.041881 0.896597 0.989359
0.162616 0.897602 0.989889
0.278404 0.898686 0.990453
0.401407 0.899847 0.991051
0.532379 0.901082 0.991678
0.662181 0.902304 0.992291
0.782487 0.903431 0.992849
0.905767 0.904466 0.993355
0.994288 0.905409 0.993811
0.057910 0.991228 0.991119
0.175400 0.991736 0.991618
0.289409 0.992278 0.992151
0.411036 0.992851 0.992714
0.540465 0.993453 0.993304
0.668664 0.994041 0.993881
0.788609 0.994576 0.994405
0.909203 0.995061 0.994880
0.995877 0.995498 0.995308
