apps/editor/assets/luts/scinetone_s11.cube
# Carbon & Bronze — generado por scripts/make_lut.py
# fuerza=0.55 contraste=0.17 desaturacion=0.04
TITLE "%s" % args.preset
LUT_3D_SIZE 5
DOMAIN_MIN 0.0 0.0 0.0
DOMAIN_MAX 1.0 1.0 1.0
0.000000 0.000000 0.000000
0.216015 0.000000 0.000000
0.462035 0.000000 0.000000
0.714683 0.000000 0.000000
0.947414 0.000000 0.000000
0.000000 0.224617 0.000000
0.226128 0.227273 0.000000
0.480848 0.230335 0.000000
0.740407 0.233342 0.000000
0.973219 0.235858 0.000000
0.000000 0.489739 0.000000
0.237091 0.493832 0.000000
0.499224 0.499045 0.000000
0.760652 0.503883 0.000000
0.986133 0.507762 0.005054
0.011647 0.761893 0.002353
0.257693 0.764574 0.009068
0.516810 0.767736 0.017168
0.772174 0.770921 0.025477
0.990823 0.773663 0.032726
0.043245 0.989585 0.025753
0.279330 0.990687 0.033012
0.533052 0.991923 0.041575
0.782981 0.993105 0.050213
0.994400 0.994077 0.057664
0.000000 0.000000 0.219340
0.217033 0.000000 0.221604
0.464044 0.000000 0.224270
0.717526 0.000000 0.226956
0.950457 0.000000 0.229269
0.000000 0.225510 0.227032
0.227114 0.228161 0.229345
0.482568 0.231212 0.232039
0.742639 0.234200 0.234716
0.975238 0.236693 0.236984
0.000000 0.491174 0.236058
0.238046 0.495160 0.238352
0.500923 0.500600 0.242710
0.761619 0.505183 0.247453
0.986565 0.509119 0.251732
0.014662 0.762803 0.249972
0.259773 0.765497 0.254355
0.518404 0.768669 0.259633
0.773203 0.771860 0.265055
0.991207 0.774605 0.269797
0.046599 0.989970 0.265242
0.281629 0.991061 0.269994
0.534750 0.992282 0.275621
0.784282 0.993450 0.281329
0.994746 0.994411 0.286279
0.000000 0.000000 0.450633
0.218219 0.000000 0.457224
0.466357 0.000000 0.464617
0.720776 0.000000 0.471662
0.953885 0.000000 0.477397
0.000000 0.226551 0.471855
0.228258 0.229194 0.477579
0.484525 0.232229 0.483838
0.745142 0.235193 0.489576
0.977436 0.237653 0.493991
0.000000 0.492787 0.492245
0.239879 0.497013 0.496656
0.502761 0.502276 0.501589
0.762757 0.506727 0.505379
0.987063 0.510720 0.508744
0.018242 0.763870 0.507372
0.262234 0.766578 0.510791
0.520278 0.769759 0.514854
0.774405 0.772957 0.518981
0.991650 0.775704 0.522559
0.050534 0.990415 0.519134
0.284331 0.991491 0.522720
0.536740 0.992696 0.526934
0.785797 0.993848 0.531175
0.995146 0.994795 0.534829
0.000000 0.000000 0.685406
0.219405 0.000000 0.696130
0.468637 0.000000 0.708008
0.723954 0.000000 0.719150
0.957181 0.000000 0.728059
0.000000 0.227590 0.719452
0.229395 0.230223 0.728340
0.486431 0.233239 0.737840
0.747529 0.236175 0.746257
0.979429 0.238991 0.752471
0.000000 0.494331 0.750027
0.241913 0.498886 0.755690
0.504397 0.503759 0.759808
0.763907 0.508295 0.762575
0.987555 0.512340 0.764963
0.021884 0.764944 0.764004
0.264730 0.767663 0.766402
0.522170 0.770853 0.769197
0.775612 0.774055 0.771985
0.992088 0.776805 0.774365
0.054495 0.990855 0.772101
0.287056 0.991917 0.774488
0.538741 0.993106 0.777253
0.787311 0.994242 0.779995
0.995541 0.995175 0.782903
0.000000 0.000000 0.903248
0.220420 0.000000 0.917149
0.470565 0.000000 0.931920
0.726621 0.000000 0.945165
0.959903 0.000000 0.955310
0.000000 0.228479 0.945515
0.230362 0.231102 0.955622
0.488020 0.234101 0.965952
0.749477 0.237007 0.974623
0.980955 0.240480 0.980461
0.000000 0.495761 0.978289
0.243734 0.500449 0.983005
0.505833 0.505059 0.985169
0.764901 0.509659 0.986610
0.987973 0.513745 0.987796
0.025052 0.765870 0.987333
0.266899 0.768597 0.988499
0.523806 0.771794 0.989804
0.776649 0.775000 0.991053
0.992460 0.777751 0.992081
0.057910 0.991228 0.991119
0.289409 0.992278 0.992151
0.540465 0.993453 0.993304
0.788609 0.994576 0.994405
0.995877 0.995498 0.995308
