apps/editor/assets/luts/scinetone_s11.cube
# Carbon & Bronze — generado por scripts/make_lut.py
# fuerza=0.55 contraste=0.17 desaturacion=0.04
TITLE "%s" % args.preset
LUT_3D_SIZE 33
DOMAIN_MIN 0.0 0.0 0.0
DOMAIN_MAX 1.0 1.0 1.0
0.000000 0.000000 0.000000
0.013590 0.000000 0.000000
0.043285 0.000000 0.000000
0.072820 0.000000 0.000000
0.102134 0.000000 0.000000
0.131159 0.000000 0.000000
0.159830 0.000000 0.000000
0.188075 0.000000 0.000000
0.216015 0.000000 0.000000
0.244487 0.000000 0.000000
0.273602 0.000000 0.000000
0.303364 0.000000 0.000000
0.333777 0.000000 0.000000
0.364847 0.000000 0.000000
0.396577 0.000000 0.000000
0.428971 0.000000 0.000000
0.462035 0.000000 0.000000
0.495215 0.000000 0.000000
0.527953 0.000000 0.000000
0.560240 0.000000 0.000000
0.592070 0.000000 0.000000
0.623436 0.000000 0.000000
0.654331 0.000000 0.000000
0.684749 0.000000 0.000000
0.714683 0.000000 0.000000
0.744128 0.000000 0.000000
0.773077 0.000000 0.000000
0.806380 0.000000 0.000000
0.839054 0.000000 0.000000
0.869404 0.000000 0.000000
0.897520 0.000000 0.000000
0.923493 0.000000 0.000000
0.947414 0.000000 0.000000
0.000000 0.016902 0.000000
0.013866 0.016930 0.000000
0.043717 0.016962 0.000000
0.073399 0.016997 0.000000
0.102850 0.017035 0.000000
0.132004 0.017077 0.000000
0.160791 0.017122 0.000000
0.189141 0.017171 0.000000
0.217204 0.017223 0.000000
0.245818 0.017280 0.000000
0.275075 0.017341 0.000000
0.304979 0.017406 0.000000
0.335535 0.017476 0.000000
0.366746 0.017551 0.000000
0.398618 0.017631 0.000000
0.431153 0.017716 0.000000
0.464357 0.017807 0.000000
0.497675 0.017901 0.000000
0.530544 0.017998 0.000000
0.562958 0.018097 0.000000
0.594909 0.018197 0.000000
0.626391 0.018300 0.000000
0.657397 0.018404 0.000000
0.687921 0.018509 0.000000
0.717957 0.018616 0.000000
0.747498 0.018724 0.000000
0.776539 0.018832 0.000000
0.810629 0.018942 0.000000
0.843172 0.019052 0.000000
0.873379 0.019162 0.000000
0.901344 0.019273 0.000000
0.927157 0.019383 0.000000
0.950910 0.019494 0.000000
0.000000 0.046748 0.000000
0.014170 0.046829 0.000000
0.044176 0.046914 0.000000
0.074005 0.047003 0.000000
0.103593 0.047096 0.000000
0.132873 0.047192 0.000000
0.161776 0.047293 0.000000
0.190230 0.047399 0.000000
0.218417 0.047509 0.000000
0.247172 0.047623 0.000000
0.276571 0.047743 0.000000
0.306616 0.047867 0.000000
0.337313 0.047997 0.000000
0.368666 0.048132 0.000000
0.400678 0.048272 0.000000
0.433354 0.048418 0.000000
0.466697 0.048569 0.000000
0.500150 0.048724 0.000000
0.533150 0.048879 0.000000
0.565688 0.049035 0.000000
0.597759 0.049192 0.000000
0.629355 0.049348 0.000000
0.660470 0.049504 0.000000
0.691097 0.049661 0.000000
0.721231 0.049816 0.000000
0.750867 0.049972 0.000000
0.779997 0.050127 0.000000
0.814842 0.050281 0.000000
0.847249 0.050434 0.000000
0.877310 0.050587 0.000000
0.905119 0.050738 0.000000
0.930769 0.050888 0.000000
0.954352 0.051036 0.000000
0.000000 0.076663 0.000000
0.014504 0.076792 0.000000
0.044664 0.076926 0.000000
0.074638 0.077064 0.000000
0.104362 0.077206 0.000000
0.133767 0.077354 0.000000
0.162784 0.077506 0.000000
0.191340 0.077663 0.000000
0.219652 0.077826 0.000000
0.248548 0.077993 0.000000
0.278087 0.078166 0.000000
0.308274 0.078344 0.000000
0.339111 0.078528 0.000000
0.370604 0.078717 0.000000
0.402755 0.078912 0.000000
0.435570 0.079113 0.000000
0.469050 0.079320 0.000000
0.502637 0.079529 0.000000
0.535764 0.079738 0.000000
0.568425 0.079945 0.000000
0.600613 0.080151 0.000000
0.632320 0.080356 0.000000
0.663541 0.080559 0.000000
0.694269 0.080761 0.000000
0.724500 0.080961 0.000000
0.754226 0.081159 0.000000
0.784290 0.081355 0.000000
0.819007 0.081549 0.000000
0.851274 0.081741 0.000000
0.881186 0.081930 0.000000
0.908836 0.082117 0.000000
0.934320 0.082302 0.000000
0.957729 0.082484 0.000000
0.000000 0.106563 0.000000
0.014869 0.106735 0.000000
0.045182 0.106913 0.000000
0.075300 0.107096 0.000000
0.105157 0.107284 0.000000
0.134685 0.107477 0.000000
0.163814 0.107676 0.000000
0.192471 0.107880 0.000000
0.220909 0.108089 0.000000
0.249945 0.108304 0.000000
0.279623 0.108525 0.000000
0.309949 0.108751 0.000000
0.340926 0.108983 0.000000
0.372557 0.109221 0.000000
0.404846 0.109465 0.000000
0.437796 0.109715 0.000000
0.471411 0.109971 0.000000
0.505130 0.110229 0.000000
0.538383 0.110484 0.000000
0.571163 0.110737 0.000000
0.603465 0.110987 0.000000
0.635280 0.111235 0.000000
0.666604 0.111479 0.000000
0.697430 0.111720 0.000000
0.727753 0.111959 0.000000
0.757566 0.112194 0.000000
0.788528 0.112426 0.000000
0.823113 0.112654 0.000000
0.855236 0.112880 0.000000
0.884994 0.113101 0.000000
0.912483 0.113319 0.000000
0.937797 0.113534 0.000000
0.961031 0.113745 0.000000
0.000000 0.136359 0.000000
0.015266 0.136571 0.000000
0.045730 0.136788 0.000000
0.075990 0.137010 0.000000
0.105979 0.137239 0.000000
0.135629 0.137472 0.000000
0.164867 0.137712 0.000000
0.193621 0.137957 0.000000
0.222186 0.138208 0.000000
0.251360 0.138465 0.000000
0.281177 0.138728 0.000000
0.311640 0.138997 0.000000
0.342754 0.139271 0.000000
0.374521 0.139552 0.000000
0.406946 0.139838 0.000000
0.440030 0.140131 0.000000
0.473778 0.140430 0.000000
0.507624 0.140730 0.000000
0.540999 0.141026 0.000000
0.573896 0.141318 0.000000
0.606308 0.141606 0.000000
0.638228 0.141889 0.000000
0.669651 0.142169 0.000000
0.700571 0.142444 0.000000
0.730982 0.142715 0.000000
0.760878 0.142982 0.000000
0.792699 0.143244 0.000000
0.827147 0.143502 0.000000
0.859122 0.143755 0.000000
0.888723 0.144003 0.000000
0.916047 0.144247 0.000000
0.941189 0.144486 0.000000
0.964245 0.144721 0.000000
0.000000 0.165958 0.000000
0.015697 0.166204 0.000000
0.046310 0.166455 0.000000
0.076710 0.166712 0.000000
0.106829 0.166975 0.000000
0.136597 0.167244 0.000000
0.165942 0.167519 0.000000
0.194791 0.167800 0.000000
0.223483 0.168087 0.000000
0.252793 0.168380 0.000000
0.282746 0.168679 0.000000
0.313345 0.168984 0.000000
0.344594 0.169295 0.000000
0.376495 0.169611 0.000000
0.409051 0.169934 0.000000
0.442267 0.170263 0.000000
0.476143 0.170598 0.000000
0.510114 0.170933 0.000000
0.543608 0.171263 0.000000
0.576617 0.171587 0.000000
0.609135 0.171907 0.000000
0.641155 0.172221 0.000000
0.672673 0.172529 0.000000
0.703681 0.172832 0.000000
0.734175 0.173130 0.000000
0.764149 0.173422 0.000000
0.796789 0.173708 0.000000
0.831094 0.173989 0.000000
0.862918 0.174264 0.000000
0.892358 0.174534 0.000000
0.919514 0.174798 0.000000
0.944482 0.175056 0.000000
0.967359 0.175309 0.000000
0.000000 0.195260 0.000000
0.016163 0.195535 0.000000
0.046924 0.195815 0.000000
0.077460 0.196101 0.000000
0.107705 0.196394 0.000000
0.137589 0.196692 0.000000
0.167038 0.196997 0.000000
0.195979 0.197307 0.000000
0.224797 0.197624 0.000000
0.254242 0.197947 0.000000
0.284329 0.198276 0.000000
0.315061 0.198610 0.000000
0.346441 0.198951 0.000000
0.378473 0.199297 0.000000
0.411159 0.199649 0.000000
0.444501 0.200007 0.000000
0.478502 0.200371 0.000000
0.512594 0.200735 0.000000
0.546201 0.201092 0.000000
0.579318 0.201443 0.000000
0.611937 0.201788 0.000000
0.644052 0.202126 0.000000
0.675659 0.202458 0.000000
0.706750 0.202784 0.000000
0.737322 0.203103 0.000000
0.767367 0.203416 0.000000
0.800780 0.203722 0.000000
0.834939 0.204022 0.000000
0.866607 0.204315 0.000000
0.895884 0.204602 0.000000
0.922868 0.204883 0.000000
0.947660 0.205157 0.000000
0.970356 0.205425 0.000000
0.000000 0.224617 0.000000
0.016667 0.224926 0.000000
0.047571 0.225241 0.000000
0.078241 0.225564 0.000000
0.108610 0.225893 0.000000
0.138605 0.226228 0.000000
0.168155 0.226570 0.000000
0.197183 0.226918 0.000000
0.226128 0.227273 0.000000
0.255704 0.227634 0.000000
0.285922 0.228002 0.000000
0.316784 0.228375 0.000000
0.348293 0.228755 0.000000
0.380452 0.229141 0.000000
0.413262 0.229533 0.000000
0.446727 0.229931 0.000000
0.480848 0.230335 0.000000
0.515055 0.230738 0.000000
0.548771 0.231133 0.000000
0.581989 0.231521 0.000000
0.614704 0.231900 0.000000
0.646908 0.232272 0.000000
0.678597 0.232637 0.000000
0.709765 0.232993 0.000000
0.740407 0.233342 0.000000
0.770517 0.233683 0.000000
0.804656 0.234017 0.000000
0.838664 0.234342 0.000000
0.870172 0.234661 0.000000
0.899281 0.234971 0.000000
0.926092 0.235274 0.000000
0.950705 0.235570 0.000000
0.973219 0.235858 0.000000
0.000000 0.254812 0.000000
0.017209 0.255155 0.000000
0.048253 0.255506 0.000000
0.079054 0.255864 0.000000
0.109542 0.256229 0.000000
0.139646 0.256600 0.000000
0.169292 0.256978 0.000000
0.198404 0.257363 0.000000
0.227474 0.257755 0.000000
0.257179 0.258153 0.000000
0.287524 0.258557 0.000000
0.318512 0.258968 0.000000
0.350145 0.259385 0.000000
0.382426 0.259807 0.000000
0.415357 0.260236 0.000000
0.448939 0.260671 0.000000
0.483175 0.261111 0.000000
0.517491 0.261549 0.000000
0.551309 0.261978 0.000000
0.584622 0.262398 0.000000
0.617425 0.262809 0.000000
0.649711 0.263211 0.000000
0.681475 0.263603 0.000000
0.712711 0.263987 0.000000
0.743415 0.264361 0.000000
0.773581 0.264727 0.000000
0.808394 0.265083 0.000000
0.842246 0.265431 0.000000
0.873589 0.265770 0.000000
0.902527 0.266100 0.000000
0.929162 0.266421 0.000000
0.953594 0.266734 0.000000
0.975925 0.267038 0.000000
0.000000 0.285862 0.000000
0.017791 0.286238 0.000000
0.048972 0.286622 0.000000
0.079899 0.287012 0.000000
0.110502 0.287410 0.000000
0.140709 0.287815 0.000000
0.170447 0.288227 0.000000
0.199638 0.288645 0.000000
0.228832 0.289070 0.000000
0.258662 0.289502 0.000000
0.289131 0.289940 0.000000
0.320240 0.290384 0.000000
0.351993 0.290834 0.000000
0.384391 0.291290 0.000000
0.417436 0.291751 0.000000
0.451129 0.292218 0.000000
0.485473 0.292691 0.000000
0.519891 0.293160 0.000000
0.553803 0.293619 0.000000
0.587204 0.294066 0.000000
0.620086 0.294504 0.000000
0.652445 0.294930 0.000000
0.684275 0.295347 0.000000
0.715570 0.295752 0.000000
0.746326 0.296148 0.000000
0.776537 0.296533 0.000000
0.811969 0.296907 0.000000
0.845659 0.297272 0.000000
0.876833 0.297626 0.000000
0.905596 0.297970 0.000000
0.932050 0.298304 0.000000
0.956300 0.298628 0.000000
0.978441 0.299005 0.000000
0.000000 0.317765 0.000000
0.018416 0.318171 0.000000
0.049728 0.318584 0.000000
0.080776 0.319005 0.000000
0.111489 0.319433 0.000000
0.141795 0.319868 0.000000
0.171620 0.320310 0.000000
0.200886 0.320759 0.000000
0.230202 0.321214 0.000000
0.260152 0.321675 0.000000
0.290738 0.322143 0.000000
0.321964 0.322616 0.000000
0.353831 0.323095 0.000000
0.386339 0.323580 0.000000
0.419492 0.324070 0.000000
0.453289 0.324564 0.000000
0.487732 0.325063 0.000000
0.522244 0.325558 0.000000
0.556242 0.326041 0.000000
0.589720 0.326512 0.000000
0.622673 0.326970 0.000000
0.655094 0.327416 0.000000
0.686978 0.327850 0.000000
0.718321 0.328272 0.000000
0.749116 0.328682 0.000000
0.779359 0.329080 0.000000
0.815349 0.329467 0.000000
0.848870 0.329841 0.000000
0.879875 0.330261 0.000000
0.908463 0.330772 0.000000
0.934722 0.331298 0.000000
0.958758 0.331827 0.000000
0.980675 0.332354 0.000000
0.000000 0.350515 0.000000
0.019085 0.350947 0.000000
0.050523 0.351388 0.000000
0.081686 0.351835 0.000000
0.112504 0.352290 0.000000
0.142904 0.352751 0.000000
0.172809 0.353220 0.000000
0.202147 0.353694 0.000000
0.231579 0.354175 0.000000
0.261644 0.354662 0.000000
0.292343 0.355155 0.000000
0.323679 0.355653 0.000000
0.355652 0.356156 0.000000
0.388264 0.356664 0.000000
0.421517 0.357177 0.000000
0.455409 0.357693 0.000000
0.489942 0.358213 0.000000
0.524537 0.358727 0.000000
0.558610 0.359228 0.000000
0.592154 0.359714 0.000000
0.625165 0.360186 0.000000
0.657635 0.360645 0.000000
0.689560 0.361089 0.000000
0.720935 0.361520 0.000000
0.751762 0.361958 0.000000
0.782576 0.362513 0.000000
0.818592 0.363089 0.000000
0.851945 0.363670 0.000000
0.882742 0.364249 0.000000
0.911096 0.364823 0.000000
0.937116 0.365388 0.000000
0.960913 0.365943 0.000000
0.982593 0.366486 0.000000
0.000000 0.384103 0.000000
0.019801 0.384559 0.000000
0.051358 0.385022 0.000000
0.082631 0.385492 0.000000
0.113547 0.385969 0.000000
0.144033 0.386453 0.000000
0.174013 0.386943 0.000000
0.203418 0.387439 0.000000
0.232961 0.387941 0.000000
0.263134 0.388449 0.000000
0.293939 0.388961 0.000000
0.325377 0.389478 0.000000
0.357450 0.389999 0.000000
0.390157 0.390524 0.000000
0.423499 0.391052 0.000000
0.457476 0.391583 0.000000
0.492088 0.392117 0.000000
0.526753 0.392642 0.000000
0.560887 0.393152 0.000000
0.594484 0.393646 0.000000
0.627537 0.394124 0.000000
0.660097 0.394680 0.000000
0.692132 0.395303 0.000000
0.723593 0.395934 0.000000
0.754465 0.396565 0.000000
0.785900 0.397189 0.000000
0.821669 0.397804 0.000000
0.854761 0.398407 0.000000
0.885292 0.398997 0.000000
0.913377 0.399571 0.000000
0.939127 0.400129 0.000000
0.962653 0.400669 0.000000
0.984061 0.401187 0.000000
0.000000 0.418517 0.000000
0.020565 0.418991 0.000000
0.052235 0.419472 0.000000
0.083610 0.419961 0.000000
0.114617 0.420455 0.000000
0.145182 0.420956 0.000000
0.175229 0.421463 0.000000
0.204697 0.421975 0.000000
0.234343 0.422492 0.000000
0.264618 0.423013 0.000000
0.295521 0.423539 0.000000
0.327053 0.424068 0.000000
0.359214 0.424600 0.000000
0.392006 0.425134 0.000000
0.425426 0.425670 0.000000
0.459475 0.426206 0.000000
0.494151 0.426743 0.000000
0.528880 0.427279 0.000000
0.563187 0.427936 0.000000
0.596956 0.428616 0.000000
0.630154 0.429297 0.000000
0.662766 0.429972 0.000000
0.694782 0.430637 0.000000
0.726193 0.431289 0.000000
0.756991 0.431926 0.000000
0.788901 0.432545 0.000000
0.824362 0.433145 0.000000
0.857137 0.433723 0.000000
0.887334 0.434274 0.000000
0.915036 0.434783 0.000000
0.940414 0.435269 0.000000
0.963631 0.435748 0.000000
0.984795 0.436220 0.000000
0.000000 0.453737 0.000000
0.021380 0.454225 0.000000
0.053155 0.454720 0.000000
0.084624 0.455220 0.000000
0.115714 0.455727 0.000000
0.146350 0.456239 0.000000
0.176456 0.456755 0.000000
0.205980 0.457276 0.000000
0.235722 0.457801 0.000000
0.266089 0.458329 0.000000
0.297080 0.458859 0.000000
0.328695 0.459391 0.000000
0.360934 0.459924 0.000000
0.393796 0.460458 0.000000
0.427340 0.461036 0.000000
0.461629 0.461723 0.000000
0.496548 0.462443 0.000000
0.531486 0.463170 0.000000
0.565844 0.463887 0.000000
0.599607 0.464590 0.000000
0.632766 0.465276 0.000000
0.665311 0.465942 0.000000
0.697231 0.466585 0.000000
0.728515 0.467203 0.000000
0.759147 0.467790 0.000000
0.791257 0.468326 0.000000
0.826270 0.468835 0.000000
0.858663 0.469337 0.000000
0.888557 0.469834 0.000000
0.916069 0.470323 0.000000
0.941317 0.470806 0.000084
0.964412 0.471281 0.000852
0.985464 0.471748 0.001608
0.000000 0.489739 0.000000
0.022249 0.490235 0.000000
0.054120 0.490736 0.000000
0.085673 0.491243 0.000000
0.116837 0.491754 0.000000
0.147534 0.492269 0.000000
0.177690 0.492788 0.000000
0.207263 0.493309 0.000000
0.237091 0.493832 0.000000
0.267539 0.494356 0.000000
0.298608 0.494883 0.000000
0.330480 0.495518 0.000000
0.363015 0.496193 0.000000
0.396172 0.496889 0.000000
0.429935 0.497600 0.000000
0.464290 0.498319 0.000000
0.499224 0.499045 0.000000
0.534140 0.499761 0.000000
0.568442 0.500453 0.000000
0.602117 0.501115 0.000000
0.635149 0.501743 0.000000
0.667504 0.502319 0.000000
0.699172 0.502845 0.000000
0.730222 0.503367 0.000000
0.760652 0.503883 0.000000
0.792958 0.504393 0.000000
0.827792 0.504896 0.000220
0.860016 0.505392 0.001056
0.889751 0.505882 0.001881
0.917117 0.506364 0.002693
0.942227 0.506838 0.003493
0.965196 0.507304 0.004280
0.986133 0.507762 0.005054
0.000000 0.525885 0.000000
0.023160 0.526381 0.000000
0.055114 0.526881 0.000000
0.086741 0.527385 0.000000
0.117966 0.527892 0.000000
0.148714 0.528400 0.000000
0.178906 0.528910 0.000000
0.208689 0.529498 0.000000
0.238846 0.530133 0.000000
0.269637 0.530787 0.000000
0.301044 0.531454 0.000000
0.333056 0.532130 0.000000
0.365661 0.532813 0.000000
0.398849 0.533498 0.000000
0.432609 0.534182 0.000000
0.466929 0.534861 0.000000
0.501792 0.535527 0.000000
0.536590 0.536158 0.000000
0.570696 0.536714 0.000000
0.604160 0.537250 0.000000
0.637000 0.537781 0.000000
0.669217 0.538307 0.000000
0.700811 0.538827 0.000088
0.731783 0.539341 0.000990
0.762136 0.539848 0.001882
0.794677 0.540349 0.002763
0.829324 0.540842 0.003632
0.861373 0.541328 0.004489
0.890946 0.541806 0.005333
0.918160 0.542276 0.006164
0.943130 0.542739 0.006981
0.965971 0.543193 0.007784
0.986790 0.543639 0.008573
0.000000 0.561520 0.000000
0.024098 0.562007 0.000000
0.056123 0.562496 0.000000
0.088040 0.563058 0.000000
0.119612 0.563654 0.000000
0.150699 0.564266 0.000000
0.181204 0.564890 0.000000
0.211128 0.565522 0.000000
0.241395 0.566160 0.000000
0.272256 0.566801 0.000000
0.303702 0.567442 0.000000
0.335726 0.568079 0.000000
0.368315 0.568707 0.000000
0.401456 0.569318 0.000000
0.435124 0.569895 0.000000
0.469285 0.570416 0.000000
0.503981 0.570950 0.000000
0.538629 0.571488 0.000000
0.572647 0.572020 0.000000
0.606038 0.572547 0.000599
0.638801 0.573068 0.001556
0.670939 0.573583 0.002503
0.702452 0.574092 0.003440
0.733343 0.574593 0.004364
0.763613 0.575087 0.005277
0.796379 0.575575 0.006178
0.830837 0.576054 0.007065
0.862710 0.576526 0.007939
0.892118 0.576990 0.008799
0.919180 0.577446 0.009644
0.944011 0.577894 0.010475
0.966723 0.578334 0.011292
0.987426 0.578765 0.012093
0.000000 0.596763 0.000000
0.026212 0.597333 0.000000
0.058656 0.597912 0.000000
0.090729 0.598498 0.000000
0.122349 0.599090 0.000000
0.153431 0.599684 0.000000
0.183894 0.600279 0.000000
0.213794 0.600871 0.000000
0.244084 0.601456 0.000000
0.274944 0.602028 0.000000
0.306362 0.602578 0.000000
0.338313 0.603073 0.000000
0.370796 0.603548 0.000000
0.403820 0.604035 0.000000
0.437383 0.604533 0.000000
0.471479 0.605044 0.000000
0.506104 0.605567 0.000904
0.540675 0.606092 0.001915
0.574616 0.606612 0.002916
0.607926 0.607125 0.003906
0.640608 0.607632 0.004886
0.672662 0.608132 0.005854
0.704091 0.608625 0.006810
0.734896 0.609111 0.007753
0.765080 0.609589 0.008683
0.798061 0.610060 0.009599
0.832329 0.610524 0.010501
0.864024 0.610979 0.011389
0.893267 0.611427 0.012262
0.920177 0.611867 0.013120
0.944869 0.612298 0.013963
0.967453 0.612721 0.014790
0.988040 0.613136 0.015602
0.000000 0.631603 0.000000
0.029303 0.632149 0.000000
0.061746 0.632695 0.000000
0.093787 0.633238 0.000000
0.125348 0.633776 0.000000
0.156346 0.634304 0.000000
0.186699 0.634814 0.000000
0.216526 0.635288 0.000000
0.246770 0.635709 0.000000
0.277564 0.636141 0.000000
0.308906 0.636583 0.000000
0.340791 0.637036 0.000000
0.373217 0.637500 0.000199
0.406180 0.637975 0.001153
0.439674 0.638461 0.002132
0.473697 0.638957 0.003135
0.508244 0.639464 0.004161
0.542734 0.639973 0.005195
0.576592 0.640476 0.006217
0.609817 0.640973 0.007227
0.642412 0.641462 0.008225
0.674380 0.641944 0.009210
0.705721 0.642419 0.010182
0.736438 0.642887 0.011140
0.766534 0.643348 0.012085
0.799721 0.643801 0.013014
0.833797 0.644246 0.013929
0.865314 0.644683 0.014829
0.894394 0.645113 0.015713
0.921152 0.645534 0.016582
0.945705 0.645948 0.017435
0.968163 0.646353 0.018271
0.988635 0.646751 0.019092
0.000000 0.665665 0.000000
0.032711 0.666143 0.000000
0.065085 0.666606 0.000000
0.097036 0.667041 0.000000
0.128480 0.667418 0.000000
0.159335 0.667799 0.000000
0.189526 0.668189 0.000000
0.219256 0.668589 0.000000
0.249453 0.668999 0.000000
0.280197 0.669419 0.000592
0.311484 0.669849 0.001499
0.343309 0.670288 0.002429
0.375670 0.670738 0.003382
0.408563 0.671197 0.004359
0.441984 0.671666 0.005359
0.475928 0.672145 0.006382
0.510392 0.672633 0.007428
0.544797 0.673124 0.008480
0.578566 0.673607 0.009520
0.611703 0.674084 0.010547
0.644210 0.674553 0.011560
0.676088 0.675016 0.012560
0.707339 0.675471 0.013546
0.737966 0.675919 0.014516
0.767972 0.676360 0.015473
0.801355 0.676793 0.016413
0.835240 0.677219 0.017339
0.866580 0.677636 0.018249
0.895496 0.678046 0.019143
0.922104 0.678449 0.020020
0.946519 0.678843 0.020882
0.968851 0.679230 0.021726
0.989209 0.679608 0.022554
0.003735 0.698660 0.000000
0.036358 0.698994 0.000000
0.068606 0.699336 0.000000
0.100406 0.699687 0.000000
0.131687 0.700047 0.000000
0.162374 0.700417 0.000244
0.192393 0.700795 0.001081
0.222035 0.701182 0.001940
0.252179 0.701578 0.002822
0.282865 0.701983 0.003727
0.314090 0.702397 0.004654
0.345849 0.702820 0.005603
0.378140 0.703252 0.006576
0.410959 0.703693 0.007571
0.444301 0.704143 0.008588
0.478162 0.704602 0.009629
0.512540 0.705069 0.010692
0.546855 0.705538 0.011760
0.580535 0.706001 0.012814
0.613581 0.706456 0.013855
0.645996 0.706904 0.014881
0.677782 0.707345 0.015893
0.708942 0.707779 0.016890
0.739478 0.708206 0.017872
0.769392 0.708625 0.018838
0.802962 0.709037 0.019789
0.836657 0.709442 0.020724
0.867821 0.709839 0.021642
0.896574 0.710229 0.022544
0.923033 0.710611 0.023429
0.947311 0.710985 0.024298
0.969519 0.711352 0.025150
0.989765 0.711711 0.025984
0.007663 0.730630 0.000000
0.040123 0.730952 0.000108
0.072203 0.731283 0.000877
0.103831 0.731621 0.001667
0.134937 0.731968 0.002479
0.165446 0.732323 0.003313
0.195285 0.732686 0.004169
0.224845 0.733058 0.005047
0.254930 0.733438 0.005947
0.285553 0.733825 0.006868
0.316711 0.734221 0.007812
0.348400 0.734626 0.008778
0.380616 0.735038 0.009766
0.413357 0.735459 0.010777
0.446617 0.735888 0.011809
0.480393 0.736325 0.012864
0.514681 0.736770 0.013941
0.548904 0.737216 0.015023
0.582492 0.737656 0.016090
0.615445 0.738088 0.017142
0.647768 0.738514 0.018180
0.679461 0.738932 0.019202
0.710528 0.739343 0.020209
0.740971 0.739748 0.021200
0.770793 0.740145 0.022175
0.804541 0.740535 0.023134
0.838048 0.740918 0.024077
0.869037 0.741293 0.025002
0.897628 0.741661 0.025911
0.923939 0.742022 0.026803
0.948082 0.742376 0.027678
0.970168 0.742722 0.028536
0.990303 0.743061 0.029376
0.011647 0.761893 0.002353
0.043933 0.762202 0.003117
0.075836 0.762518 0.003903
0.107284 0.762842 0.004711
0.138207 0.763174 0.005539
0.168532 0.763513 0.006389
0.198186 0.763859 0.007260
0.227672 0.764213 0.008153
0.257693 0.764574 0.009068
0.288249 0.764943 0.010004
0.319336 0.765320 0.010962
0.350951 0.765704 0.011942
0.383091 0.766095 0.012944
0.415750 0.766494 0.013967
0.448926 0.766901 0.015012
0.482614 0.767315 0.016079
0.516810 0.767736 0.017168
0.550940 0.768158 0.018261
0.584434 0.768573 0.019339
0.617293 0.768982 0.020402
0.649522 0.769383 0.021449
0.681121 0.769778 0.022480
0.712095 0.770166 0.023496
0.742445 0.770547 0.024495
0.772174 0.770921 0.025477
0.806092 0.771288 0.026443
0.839410 0.771649 0.027393
0.870226 0.772002 0.028325
0.898658 0.772348 0.029240
0.924823 0.772687 0.030138
0.948832 0.773019 0.031018
0.970797 0.773345 0.031881
0.990823 0.773663 0.032726
0.015659 0.795379 0.005352
0.047764 0.795738 0.006131
0.079483 0.796105 0.006931
0.110746 0.796481 0.007752
0.141481 0.796864 0.008595
0.171618 0.797256 0.009458
0.201083 0.797655 0.010343
0.230503 0.798063 0.011249
0.260457 0.798479 0.012176
0.290944 0.798903 0.013124
0.321958 0.799335 0.014094
0.353497 0.799775 0.015086
0.385556 0.800223 0.016099
0.418133 0.800679 0.017133
0.451222 0.801143 0.018190
0.484821 0.801615 0.019267
0.518924 0.802094 0.020367
0.552959 0.802574 0.021469
0.586358 0.803045 0.022556
0.619123 0.803508 0.023628
0.651256 0.803962 0.024683
0.682761 0.804409 0.025722
0.713641 0.804847 0.026745
0.743897 0.805276 0.027751
0.773534 0.805698 0.028740
0.807613 0.806111 0.029713
0.840746 0.806516 0.030668
0.871390 0.806912 0.031605
0.899664 0.807301 0.032526
0.925684 0.807681 0.033428
0.949562 0.808053 0.034313
0.971407 0.808416 0.035180
0.991326 0.808772 0.036029
0.019678 0.830820 0.008345
0.051598 0.831140 0.009137
0.083129 0.831468 0.009949
0.114202 0.831802 0.010782
0.144746 0.832143 0.011636
0.174691 0.832491 0.012511
0.203976 0.832847 0.013407
0.233330 0.833209 0.014324
0.263216 0.833578 0.015262
0.293630 0.833954 0.016221
0.324569 0.834337 0.017201
0.356030 0.834727 0.018203
0.388008 0.835124 0.019226
0.420500 0.835527 0.020270
0.453502 0.835938 0.021335
0.487010 0.836355 0.022422
0.521019 0.836778 0.023530
0.554958 0.837201 0.024642
0.588261 0.837617 0.025737
0.620931 0.838025 0.026816
0.652969 0.838426 0.027878
0.684380 0.838819 0.028924
0.715165 0.839204 0.029953
0.745328 0.839582 0.030965
